(Generated by PartKam Version 0.05)

G21 G90 G40

(follow path 1)
M5
T0 M6
G17
M5
G0 X-171.27309644670052 Y-82.21700507614213
M3
G1 X-176.45431472081216 Y-82.87055837563452 F45000
G1 X-167.00761421319797 Y-84.8730964467005
G1 X-171.7335025380711 Y-88.35532994923858
G1 X-170.07868020304568 Y-94.8730964467005
G1 X-165.8477157360406 Y-98.10152284263958
G1 X-165.253807106599 Y-104.26142131979695
G1 X-170.39086294416245 Y-102.21827411167511
G1 X-175.505076142132 Y-102.55583756345177
G1 X-179.9010152284264 Y-104.42131979695432
G1 X-184.01269035532994 Y-108.10913705583756
G1 X-185.48223350253807 Y-104.24873096446701
G1 X-184.4441624365482 Y-100.20558375634519
G1 X-179.97461928934013 Y-98.38324873096447
G1 X-174.746192893401 Y-97.68781725888324
G1 X-175.26649746192896 Y-92.748730964467
G1 X-177.42639593908632 Y-88.24111675126903
G1 X-181.66751269035532 Y-86.11421319796955
G1 X-180.64467005076142 Y-92.94416243654823
G1 X-185.253807106599 Y-95.248730964467
G1 X-184.92131979695432 Y-89.60406091370558
G1 X-189.51522842639594 Y-86.15989847715737
G1 X-189.56852791878174 Y-90.57360406091371
G1 X-189.85279187817258 Y-94.84517766497461
G1 X-189.4822335025381 Y-99.36802030456853
G1 X-189.93908629441623 Y-103.89593908629442
G1 X-189.28680203045687 Y-108.29949238578679
G1 X-189.75634517766497 Y-112.56345177664974
G1 X-189.746192893401 Y-116.81979695431473
G1 X-189.99238578680203 Y-121.10659898477158
G1 X-189.61675126903555 Y-125.56091370558376
G1 X-185.53299492385787 Y-121.29187817258882
G1 X-184.30203045685278 Y-125.51015228426395
G1 X-179.24111675126903 Y-125.32487309644671
G1 X-173.9314720812183 Y-125.09898477157361
G1 X-169.3984771573604 Y-123.85532994923858
G1 X-164.46446700507613 Y-125.27918781725889
G1 X-158.55837563451777 Y-125.18781725888324
G1 X-152.46192893401016 Y-125.23604060913705
G1 X-148.4492385786802 Y-120.94162436548224
G1 X-153.41116751269035 Y-119.84010152284264
G1 X-154.00761421319797 Y-114.7258883248731
G1 X-158.60913705583758 Y-119.95431472081219
G1 X-164.4517766497462 Y-119.87817258883248
G1 X-165.2258883248731 Y-113.94416243654823
G1 X-169.23857868020306 Y-116.21319796954316
G1 X-172.71319796954316 Y-118.91370558375634
G1 X-177.06091370558374 Y-119.56852791878174
G1 X-181.19289340101523 Y-120.8730964467005
G1 X-184.8248730964467 Y-116.89340101522843
G1 X-184.8451776649746 Y-112.33502538071066
G1 X-180.19035532994923 Y-115.24365482233503
G1 X-179.36294416243655 Y-109.91878172588832
G1 X-174.83248730964465 Y-113.32741116751268
G1 X-174.20558375634516 Y-107.6725888324873
G1 X-169.06091370558374 Y-109.39340101522843
G1 X-162.60913705583758 Y-109.51269035532995
G1 X-159.87817258883248 Y-114.83756345177666
G1 X-156.4517766497462 Y-110.15482233502539
G1 X-153.93401015228426 Y-105.66751269035534
G1 X-149.9010152284264 Y-109.90355329949239
G1 X-148.12182741116752 Y-115.09390862944161
G1 X-145.4746192893401 Y-107.33756345177666
G1 X-140.43908629441626 Y-107.35279187817258
G1 X-142.31218274111677 Y-112.80456852791879
G1 X-143.38071065989848 Y-118.78934010152284
G1 X-138.16751269035532 Y-119.7994923857868
G1 X-136.42131979695432 Y-114.82994923857868
G1 X-131.28680203045684 Y-112.19289340101524
G1 X-135.62182741116752 Y-108.91116751269035
G1 X-136.49492385786803 Y-103.03553299492386
G1 X-142.6015228426396 Y-102.248730964467
G1 X-145.2005076142132 Y-97.8781725888325
G1 X-139.30710659898477 Y-97.52791878172589
G1 X-142.4467005076142 Y-92.19543147208121
G1 X-138.60659898477158 Y-89.30456852791878
G1 X-135.59390862944161 Y-93.35532994923858
G1 X-130.19289340101523 Y-92.20812182741116
G1 X-132.92893401015226 Y-98.57360406091371
G1 X-130.26395939086294 Y-104.35025380710661
G1 X-126.81725888324874 Y-108.96192893401015
G1 X-123.10659898477157 Y-103.5
G1 X-119.69289340101524 Y-97.39340101522842
G1 X-126.88578680203045 Y-97.78172588832489
G1 X-124.01522842639594 Y-90.34517766497461
G1 X-116.65989847715736 Y-90.0507614213198
G1 X-118.90609137055839 Y-83.38832487309645
G1 X-120.25634517766498 Y-76.09390862944163
G1 X-123.41116751269035 Y-68.80456852791879
G1 X-127.30964467005077 Y-76.32487309644671
G1 X-132.12944162436548 Y-72.15736040609137
G1 X-133.60913705583758 Y-79.72081218274111
G1 X-125.77918781725887 Y-82.08883248730965
G1 X-129.2741116751269 Y-86.07106598984771
G1 X-134.6243654822335 Y-86.03045685279187
G1 X-140.9771573604061 Y-84.49492385786803
G1 X-139.93654822335026 Y-78.55329949238579
G1 X-146.35786802030458 Y-75.96192893401016
G1 X-147.00507614213197 Y-82.03045685279187
G1 X-146.9517766497462 Y-87.53299492385787
G1 X-147.56598984771574 Y-92.93908629441624
G1 X-150.67258883248732 Y-97.246192893401
G1 X-149.005076142132 Y-103.03045685279187
G1 X-154.78426395939087 Y-100.59137055837564
G1 X-159.5736040609137 Y-105.1269035532995
G1 X-160.44670050761422 Y-99.75634517766497
G1 X-156.2766497461929 Y-95.13197969543148
G1 X-152.497461928934 Y-90.79949238578679
G1 X-161.7233502538071 Y-93.7766497461929
G1 X-165.86802030456852 Y-90.47461928934011
G1 X-161.58629441624367 Y-84.86040609137056
G1 X-158.11421319796955 Y-89.002538071066
G1 X-153.60406091370558 Y-84.47715736040608
G1 X-152.53807106598984 Y-77.87309644670052
G1 X-158.7715736040609 Y-79.36294416243655
G1 X-165.57868020304568 Y-78.72081218274111
G1 X-169.38578680203048 Y-73.2766497461929
G1 X-172.58375634517765 Y-77.28934010152284
G1 X-178.0507614213198 Y-77.08883248730965
G1 X-181.57868020304568 Y-80.997461928934
G1 X-185.8147208121827 Y-83.09898477157361
G1 X-190.02538071065987 Y-81.40609137055839
G1 X-188.8248730964467 Y-77.31472081218274
G1 X-183.80964467005074 Y-76.68274111675127
G1 X-181.28172588832487 Y-72.02791878172589
G1 X-186.4796954314721 Y-71.99238578680203
G1 X-190.35532994923858 Y-72.24619289340102
G1 X-189.61167512690355 Y-65.73350253807106
G1 X-184.98477157360406 Y-67.18527918781726
G1 X-179.6979695431472 Y-66.86802030456853
G1 X-175.71065989847716 Y-71.75888324873097
G1 X-171.30456852791878 Y-66.6497461928934
G1 X-163.1243654822335 Y-72.02030456852792
G1 X-157.2741116751269 Y-72.43654822335026
G1 X-150.94162436548226 Y-68.2766497461929
G1 X-140.20812182741116 Y-71.00253807106598
G1 X-136.01776649746193 Y-57.28172588832487
G1 X-148.14467005076142 Y-56.02284263959391
G1 X-157.59137055837562 Y-48.40609137055837
G1 X-149.7258883248731 Y-41.474619289340104
G1 X-136.96192893401016 Y-43.61167512690355
G1 X-128.69289340101523 Y-33.08375634517767
G1 X-138.33502538071065 Y-28.1751269035533
G1 X-129.1776649746193 Y-18.631979695431472
G1 X-117.4492385786802 Y-39.22081218274111
G1 X-124.51015228426397 Y-51.19289340101523
G1 X-114.26395939086294 Y-61.73857868020305
G1 X-108.26903553299493 Y-49.30964467005076
G1 X-103.71065989847716 Y-37.98984771573604
G1 X-96.16497461928932 Y-36.0507614213198
G1 X-96.3502538071066 Y-44.57360406091371
G1 X-88.85532994923858 Y-43.66243654822335
G1 X-88.96700507614213 Y-49.90355329949239
G1 X-82.3730964467005 Y-50.27918781725888
G1 X-78.54314720812182 Y-55.629441624365484
G1 X-71.20558375634518 Y-60.878172588832484
G1 X-67.63959390862945 Y-68.93908629441624
G1 X-78.11928934010152 Y-68.55076142131979
G1 X-79.5507614213198 Y-78.26649746192894
G1 X-74.35532994923858 Y-87.29695431472081
G1 X-68.39340101522842 Y-78.71065989847716
G1 X-60.54822335025381 Y-77.3502538071066
G1 X-59.81218274111675 Y-71.84263959390863
G1 X-59.08375634517767 Y-66.2005076142132
G1 X-62.213197969543145 Y-60.86294416243655
G1 X-65.60659898477158 Y-54.743654822335024
G1 X-59.121827411167516 Y-53.81218274111675
G1 X-54.25888324873096 Y-56.66751269035533
G1 X-52.97969543147208 Y-63.5
G1 X-52.30203045685279 Y-70.2741116751269
G1 X-53.619289340101524 Y-77.3984771573604
G1 X-46.68020304568528 Y-73.92131979695432
G1 X-39.423857868020306 Y-72
G1 X-33.845177664974614 Y-77.15228426395939
G1 X-26.913705583756347 Y-81.42639593908629
G1 X-21.124365482233504 Y-79.28172588832487
G1 X-20.1751269035533 Y-72.87309644670052
G1 X-26.893401015228427 Y-73.68020304568529
G1 X-31.890862944162436 Y-69.86040609137055
G1 X-29.779187817258883 Y-63.06345177664974
G1 X-23.494923857868024 Y-66.5761421319797
G1 X-18.258883248730964 Y-61.59644670050761
G1 X-23.878172588832488 Y-58.22842639593909
G1 X-30.329949238578678 Y-55.22335025380711
G1 X-31.784263959390863 Y-48.77918781725889
G1 X-36.868020304568525 Y-52.109137055837564
G1 X-38.2258883248731 Y-44.85786802030457
G1 X-43.96954314720812 Y-40.95177664974619
G1 X-51.86294416243655 Y-41.25888324873096
G1 X-48.00253807106599 Y-46.18274111675127
G1 X-42.98984771573604 Y-49.67005076142132
G1 X-42.79187817258883 Y-55.545685279187815
G1 X-36.52030456852792 Y-58.37309644670051
G1 X-36.69796954314721 Y-65.61928934010152
G1 X-41.619289340101524 Y-62.02284263959391
G1 X-45.36802030456853 Y-67.24873096446701
G1 X-47.609137055837564 Y-59.84517766497462
G1 X-49.2258883248731 Y-52.2741116751269
G1 X-54.71827411167513 Y-48.45939086294416
G1 X-61.68781725888324 Y-48.11421319796955
G1 X-65.69035532994924 Y-42.04060913705583
G1 X-68.58883248730965 Y-47.398477157360404
G1 X-72.45431472081219 Y-52.42131979695431
G1 X-75.50761421319797 Y-46.60406091370558
G1 X-81.72335025380711 Y-44.505076142131976
G1 X-78.51269035532995 Y-39.65989847715736
G1 X-84.58121827411168 Y-38.69035532994924
G1 X-83.84771573604061 Y-32.51776649746193
G1 X-83.53045685279187 Y-26.626903553299492
G1 X-78.87055837563452 Y-21.918781725888326
G1 X-80.75888324873097 Y-15.926395939086294
G1 X-76.62182741116752 Y-10.705583756345177
G1 X-77.98477157360406 Y1.3020304568527918
G1 X-74.3248730964467 Y-3.9263959390862944
G1 X-70.34010152284264 Y-8.32741116751269
G1 X-65.63451776649745 Y-12.550761421319796
G1 X-64.36548223350255 Y-21.337563451776653
G1 X-71.62182741116752 Y-14.819796954314722
G1 X-73.21065989847716 Y-20.06345177664975
G1 X-70.49238578680203 Y-26.383248730964468
G1 X-76.51269035532995 Y-28.378172588832488
G1 X-76.7258883248731 Y-34.3502538071066
G1 X-72.23604060913706 Y-40.5
G1 X-69.7741116751269 Y-33.89593908629442
G1 X-62.85532994923858 Y-36.246192893401016
G1 X-58.03807106598985 Y-41.28426395939086
G1 X-49.40862944162436 Y-35.890862944162436
G1 X-56.66243654822335 Y-33.6751269035533
G1 X-64.1015228426396 Y-30.63451776649746
G1 X-59.04568527918782 Y-26.484771573604064
G1 X-53.1751269035533 Y-23.634517766497463
G1 X-49.53045685279187 Y-29.33756345177665
G1 X-47.17005076142132 Y-21.703045685279186
G1 X-49.65482233502538 Y-15.845177664974619
G1 X-52.84517766497462 Y-10.497461928934012
G1 X-57.06345177664975 Y-18.246192893401016
G1 X-58.53045685279188 Y-11.474619289340103
G1 X-57.6497461928934 Y-4.626903553299492
G1 X-58.799492385786806 Y1.0101522842639594
G1 X-62.97969543147208 Y-6.99746192893401
G1 X-66.78426395939086 Y-3.035532994923858
G1 X-70.73604060913706 Y1.4949238578680202
G1 X-73.35279187817258 Y6.322335025380711
G1 X-78.69289340101523 Y7.401015228426396
G1 X-78.30456852791878 Y13.088832487309645
G1 X-82.93654822335026 Y17.190355329949238
G1 X-84.58629441624366 Y11.408629441624365
G1 X-84.20050761421321 Y5.7005076142131985
G1 X-84.96954314720811 Y0.5076142131979695
G1 X-81.11928934010152 Y-4.314720812182741
G1 X-82.89086294416244 Y-9.578680203045685
G1 X-87.5482233502538 Y-13.49238578680203
G1 X-86.26649746192894 Y-21.1497461928934
G1 X-91.67766497461929 Y-17.421319796954315
G1 X-95.11167512690355 Y-10.81725888324873
G1 X-97.16243654822335 Y-4.436548223350254
G1 X-88.99238578680203 Y-7.00253807106599
G1 X-90.16751269035532 Y-1.2258883248730965
G1 X-94.99238578680203 Y2.5228426395939083
G1 X-90.36802030456853 Y7.83248730964467
G1 X-97.18781725888326 Y9.180203045685278
G1 X-96.20558375634518 Y17.091370558375633
G1 X-89.8274111675127 Y15.530456852791879
G1 X-91.86802030456853 Y29.28680203045685
G1 X-109.19035532994924 Y27.774111675126903
G1 X-123.71319796954316 Y30.809644670050762
G1 X-129.34263959390864 Y20.54568527918782
G1 X-112.66497461928934 Y13.395939086294417
G1 X-104.92131979695431 Y0.06598984771573604
G1 X-103.29187817258884 Y-11.502538071065992
G1 X-98.18274111675126 Y-17.246192893401016
G1 X-103.01522842639594 Y-22.002538071065988
G1 X-93.98477157360405 Y-23.893401015228427
G1 X-91.11167512690356 Y-29.54314720812183
G1 X-90.13705583756345 Y-36.578680203045685
G1 X-100.55329949238578 Y-29.51269035532995
G1 X-115.73096446700507 Y-25.46446700507614
G1 X-116.7766497461929 Y-12.624365482233502
G1 X-118.94416243654823 Y-0.9796954314720813
G1 X-131.5507614213198 Y-4.774111675126903
G1 X-140.36040609137055 Y-12.459390862944161
G1 X-155.24619289340103 Y-17.987309644670052
G1 X-168.88832487309645 Y-17.373096446700508
G1 X-172.06852791878174 Y-31.756345177664972
G1 X-162.25634517766497 Y-39.119289340101524
G1 X-162.82741116751268 Y-60.07868020304569
G1 X-176.7715736040609 Y-56.54822335025381
G1 X-174.47461928934013 Y-48.307106598984774
G1 X-187.751269035533 Y-52.90355329949239
G1 X-182.88324873096445 Y-46.11675126903553
G1 X-187.08375634517765 Y-38.06091370558376
G1 X-184.6497461928934 Y-23.725888324873097
G1 X-183.84010152284264 Y-6.4213197969543145
G1 X-179.492385786802 Y7.215736040609137
G1 X-159.12690355329948 Y0.383248730964467
G1 X-141.497461928934 Y5.66751269035533
G1 X-127.46700507614213 Y8.644670050761421
G1 X-142.46954314720813 Y20.921319796954315
G1 X-146.21573604060913 Y35.23857868020305
G1 X-158.05583756345177 Y41.05837563451777
G1 X-171.21827411167513 Y36.46700507614214
G1 X-157.8223350253807 Y21.45685279187817
G1 X-171.4314720812183 Y20.380710659898476
G1 X-187.02030456852793 Y22.451776649746193
G1 X-187.8477157360406 Y36.662436548223354
G1 X-189.01522842639594 Y46.357868020304565
G1 X-183.2081218274112 Y45.175126903553306
G1 X-180.751269035533 Y52.42131979695431
G1 X-188.69035532994926 Y54.10659898477157
G1 X-183.96954314720813 Y59.10406091370558
G1 X-185.95939086294413 Y67.6015228426396
G1 X-186.43401015228426 Y75.63959390862945
G1 X-178.80964467005074 Y81.03045685279187
G1 X-187.753807106599 Y84.09644670050761
G1 X-186.88578680203048 Y94.61421319796955
G1 X-186.33502538071068 Y106.07106598984771
G1 X-187.86548223350255 Y116.96446700507614
G1 X-179.6776649746193 Y118.53299492385787
G1 X-176.78680203045687 Y109.5228426395939
G1 X-176.30203045685278 Y100.57868020304568
G1 X-176.9441624365482 Y90.59137055837564
G1 X-165.3197969543147 Y95.61167512690355
G1 X-168.69035532994926 Y83.89593908629442
G1 X-173.3248730964467 Y73.90862944162437
G1 X-173.29187817258884 Y63.34517766497462
G1 X-166.36040609137055 Y52.39593908629441
G1 X-154.248730964467 Y58.15736040609137
G1 X-142.89593908629442 Y50.2741116751269
G1 X-133.9568527918782 Y36.6243654822335
G1 X-128.3223350253807 Y49.23604060913705
G1 X-135.3248730964467 Y62.8502538071066
G1 X-136.5228426395939 Y76.19543147208121
G1 X-148.89593908629442 Y71.46192893401016
G1 X-162.1979695431472 Y70.748730964467
G1 X-159.03807106598984 Y84.11167512690355
G1 X-155.10406091370558 Y93.23604060913706
G1 X-145.0431472081218 Y85.52030456852792
G1 X-145.38578680203045 Y98.13197969543147
G1 X-142.53553299492387 Y105.93401015228426
G1 X-150.28934010152284 Y108.40101522842639
G1 X-156.2030456852792 Y101.31725888324873
G1 X-167.01522842639594 Y105.47208121827411
G1 X-170.80964467005074 Y117.46446700507613
G1 X-162.76395939086296 Y118.31218274111676
G1 X-159.69289340101523 Y110.19543147208122
G1 X-153.69289340101523 Y118.45939086294416
G1 X-145.29441624365484 Y117.2715736040609
G1 X-137.60659898477158 Y119.01776649746193
G1 X-129.80964467005077 Y118.96446700507613
G1 X-136.63705583756345 Y110.36802030456853
G1 X-134.41878172588832 Y100.1015228426396
G1 X-131.48730964467003 Y88.83756345177665
G1 X-117.95939086294416 Y93.30964467005076
G1 X-114.35786802030456 Y83.86802030456852
G1 X-124.37563451776649 Y77.32233502538071
G1 X-121.01269035532995 Y62.77157360406092
G1 X-112.38832487309645 Y72.1015228426396
G1 X-102.46954314720811 Y67.58121827411168
G1 X-106.53299492385786 Y57.56091370558376
G1 X-115.21827411167513 Y51.4263959390863
G1 X-116.46192893401015 Y40.40862944162437
G1 X-104.20304568527919 Y42.162436548223354
G1 X-96.41878172588832 Y51.13705583756345
G1 X-84.51015228426397 Y52.92639593908629
G1 X-79.83502538071066 Y57.20558375634518
G1 X-74.58629441624366 Y57.77157360406092
G1 X-84.06852791878173 Y60.55329949238579
G1 X-94.21573604060913 Y61.555837563451774
G1 X-91.02791878172589 Y71.65228426395939
G1 X-82.96954314720813 Y77.83756345177665
G1 X-91.2284263959391 Y82.20812182741116
G1 X-93.91878172588832 Y89.41116751269035
G1 X-85.1751269035533 Y89.04314720812182
G1 X-87.89847715736042 Y95.2994923857868
G1 X-94.62944162436548 Y97.38071065989848
G1 X-90.4517766497462 Y101.39593908629442
G1 X-96.95431472081218 Y105.18274111675127
G1 X-91.65482233502537 Y107.48477157360406
G1 X-94.8248730964467 Y113.14467005076142
G1 X-101.04314720812182 Y112.16243654822335
G1 X-107.46446700507613 Y113.5761421319797
G1 X-110.61675126903553 Y107.21065989847716
G1 X-104.34517766497463 Y105.19543147208122
G1 X-101.38071065989848 Y99.40862944162436
G1 X-100.0228426395939 Y93.08121827411168
G1 X-99.48984771573605 Y76.83756345177665
G1 X-103.99492385786802 Y84.67512690355329
G1 X-107.3756345177665 Y93.91624365482232
G1 X-110.79441624365484 Y99.81218274111676
G1 X-117.99492385786803 Y103.52791878172589
G1 X-125.30710659898476 Y97.69035532994923
G1 X-125.15228426395939 Y105.42131979695432
G1 X-129.48984771573603 Y110.81979695431473
G1 X-121.86802030456853 Y112.60913705583758
G1 X-115.06598984771573 Y112.43147208121827
G1 X-123.13451776649745 Y119.8730964467005
G1 X-116.65482233502537 Y119.43654822335026
G1 X-110.15989847715736 Y119.83756345177666
G1 X-103.06598984771574 Y119.81472081218274
G1 X-96.09137055837563 Y119.72842639593908
G1 X-89.0482233502538 Y119.8756345177665
G1 X-88.15228426395939 Y112.8781725888325
G1 X-80.98730964467006 Y110.59898477157361
G1 X-82.0761421319797 Y115.78934010152284
G1 X-80.67766497461929 Y121.01776649746192
G1 X-76.50761421319797 Y117.29187817258882
G1 X-72.79187817258884 Y121.15228426395939
G1 X-70.38578680203047 Y116.68527918781726
G1 X-74.88071065989848 Y112.14213197969544
G1 X-78.58883248730965 Y106.32233502538071
G1 X-85.1751269035533 Y105.5507614213198
G1 X-83.45685279187818 Y99.66243654822335
G1 X-80.82994923857868 Y94.0482233502538
G1 X-76.0253807106599 Y97.53807106598984
G1 X-78.57106598984772 Y101.56091370558374
G1 X-73.1472081218274 Y102.28680203045685
G1 X-73.26903553299492 Y107.2741116751269
G1 X-68.53299492385787 Y107.31472081218274
G1 X-68.16243654822335 Y102.93147208121826
G1 X-69.79187817258884 Y98.88071065989848
G1 X-65.17005076142132 Y98.79695431472081
G1 X-61.19543147208121 Y100.48477157360406
G1 X-57.482233502538065 Y98.25888324873097
G1 X-53.09644670050761 Y95.67258883248732
G1 X-50.4746192893401 Y91.51522842639594
G1 X-48.5736040609137 Y97.84517766497461
G1 X-52.83248730964467 Y101.13451776649747
G1 X-57.05329949238578 Y103.53299492385787
G1 X-63.73096446700508 Y104.41624365482234
G1 X-64.18781725888324 Y109.90609137055839
G1 X-68.94162436548223 Y112.13705583756345
G1 X-64.3984771573604 Y115.81725888324874
G1 X-66.43147208121827 Y120.8502538071066
G1 X-60.40862944162437 Y120.14213197969542
G1 X-59.97969543147208 Y113.00253807106598
G1 X-59.941624365482234 Y107.31218274111676
G1 X-55.44670050761422 Y108.74619289340102
G1 X-55.88324873096447 Y115.1497461928934
G1 X-54.8756345177665 Y120.61167512690355
G1 X-49.401015228426395 Y120.79187817258884
G1 X-50.73096446700507 Y116.02791878172589
G1 X-46.753807106598984 Y112.1472081218274
G1 X-51.251269035533 Y110.76903553299493
G1 X-50.55329949238579 Y105.54060913705584
G1 X-46.154822335025386 Y102.60659898477158
G1 X-43.25888324873097 Y97.45685279187818
G1 X-45.03299492385786 Y92.46192893401016
G1 X-39.07106598984772 Y91.26142131979697
G1 X-42.692893401015226 Y86.36294416243655
G1 X-47.74873096446701 Y86.6522842639594
G1 X-43.66243654822335 Y80.03807106598984
G1 X-36.33248730964467 Y78.13197969543147
G1 X-37.192893401015226 Y84.41116751269035
G1 X-32.38324873096447 Y88.45685279187818
G1 X-33.41624365482233 Y94.04568527918782
G1 X-27.61421319796954 Y94.01776649746193
G1 X-31.337563451776653 Y98.92893401015229
G1 X-37.51522842639594 Y97.58629441624365
G1 X-35.233502538071065 Y103.19796954314722
G1 X-30.08375634517766 Y104.9746192893401
G1 X-33.40862944162437 Y108.88578680203045
G1 X-38.88324873096447 Y107.72081218274111
G1 X-41.05837563451777 Y102.60659898477158
G1 X-44.80203045685279 Y107.63451776649747
G1 X-41.57106598984772 Y112.77918781725889
G1 X-45.09644670050761 Y116.70050761421321
G1 X-44.09137055837563 Y121.25634517766498
G1 X-39.81725888324873 Y119.00761421319797
G1 X-35.13451776649746 Y121.32487309644671
G1 X-29.621827411167516 Y120.35786802030456
G1 X-34.03299492385787 Y117.08375634517766
G1 X-36.35532994923858 Y113.07106598984772
G1 X-30.428934010152282 Y113.69543147208121
G1 X-26.586294416243653 Y110.07868020304569
G1 X-25.13451776649746 Y104.5736040609137
G1 X-26.34771573604061 Y99.76903553299492
G1 X-20.563451776649746 Y101.6522842639594
G1 X-22.421319796954315 Y96.69289340101523
G1 X-17.78172588832487 Y94.88324873096447
G1 X-15.83502538071066 Y100.13705583756345
G1 X-10.956852791878173 Y100.50253807106598
G1 X-8.197969543147208 Y96.78680203045685
G1 X-13.040609137055839 Y95.35786802030456
G1 X-15.888324873096447 Y89.71573604060914
G1 X-20.360406091370557 Y86.51269035532994
G1 X-22.164974619289342 Y91.51776649746193
G1 X-26.52030456852792 Y88.5761421319797
G1 X-24.99238578680203 Y83.84517766497461
G1 X-30.236040609137053 Y82.00253807106598
G1 X-25.276649746192895 Y78.751269035533
G1 X-22.02284263959391 Y74.96700507614213
G1 X-22.939086294416242 Y70.03299492385787
G1 X-17.631979695431472 Y70.97208121827411
G1 X-12.565989847715734 Y70.98477157360406
G1 X-9.901015228426397 Y75.30710659898477
G1 X-11.230964467005077 Y80.58883248730965
G1 X-15.941624365482234 Y76.48984771573603
G1 X-20.068527918781726 Y80.43147208121826
G1 X-15.751269035532996 Y83.48223350253807
G1 X-11.159898477157359 Y86.44416243654823
G1 X-10.17766497461929 Y91.16497461928932
G1 X-6.852791878172589 Y84.35532994923858
G1 X-4.373096446700507 Y88.30203045685279
G1 X-5.291878172588832 Y92.74365482233503
G1 X-3.517766497461929 Y96.83248730964466
G1 X-1.4187817258883249 Y101.30710659898477
G1 X-6.088832487309644 Y102.21827411167511
G1 X-11.444162436548224 Y105.1243654822335
G1 X-16.30710659898477 Y105.73604060913706
G1 X-21.256345177664976 Y107.68781725888324
G1 X-16.789340101522843 Y111.0203045685279
G1 X-21.154822335025383 Y113.66751269035532
G1 X-25.728426395939085 Y116.12182741116752
G1 X-24.322335025380713 Y120.98477157360406
G1 X-19.456852791878173 Y119.52791878172589
G1 X-14.362944162436548 Y120.85532994923858
G1 X-14.51522842639594 Y115.71573604060914
G1 X-8.571065989847716 Y114.997461928934
G1 X-11.342639593908629 Y110.43147208121826
G1 X-6.677664974619289 Y107.15989847715736
G1 X-0.9416243654822334 Y106.25888324873097
G1 X1.1497461928934012 Y112.1243654822335
G1 X-4.335025380710659 Y111.19035532994923
G1 X-2.718274111675127 Y116.18781725888326
G1 X-8.972081218274111 Y120.33248730964466
G1 X-3.690355329949239 Y120.95685279187818
G1 X1.6776649746192893 Y120.32233502538071
G1 X4.819796954314721 Y115.90609137055837
G1 X7.538071065989848 Y120.65989847715736
G1 X10.967005076142131 Y115.74619289340103
G1 X13.571065989847714 Y120.59644670050761
G1 X19.28172588832487 Y120.1751269035533
G1 X23.629441624365484 Y115.19035532994923
G1 X25.69289340101523 Y120.79695431472081
G1 X30.256345177664976 Y118.60406091370558
G1 X35.454314720812185 Y120.77157360406092
G1 X33.72842639593909 Y113.08629441624365
G1 X28 Y111.34010152284263
G1 X23.63705583756345 Y104.6725888324873
G1 X19.98730964467005 Y109.41370558375635
G1 X16.67258883248731 Y114.60659898477158
G1 X16.119289340101524 Y103.61421319796955
G1 X20.261421319796952 Y98.84517766497461
G1 X14.121827411167514 Y96.38832487309644
G1 X10.6751269035533 Y100.34517766497461
G1 X9.926395939086294 Y105.62182741116752
G1 X13.512690355329948 Y109.58629441624366
G1 X7.812182741116751 Y111.32233502538071
G1 X4.223350253807107 Y107.73857868020303
G1 X4.977157360406092 Y102.81218274111674
G1 X2.5431472081218276 Y99.08883248730965
G1 X0.9060913705583756 Y95.06852791878173
G1 X0.1979695431472081 Y90.86040609137056
G1 X5.50761421319797 Y91.89593908629442
G1 X7.3578680203045685 Y96.67766497461929
G1 X10.700507614213198 Y91.93401015228426
G1 X15.680203045685278 Y89.5989847715736
G1 X20.243654822335024 Y92.87309644670052
G1 X27.215736040609137 Y98.70558375634518
G1 X31.880710659898476 Y94.19289340101523
G1 X37.50253807106599 Y92.38071065989848
G1 X41.73350253807107 Y89.53553299492386
G1 X45.09390862944162 Y85.28680203045684
G1 X41.09137055837564 Y81.08883248730965
G1 X37.578680203045685 Y84.64467005076142
G1 X33.34010152284264 Y79.68781725888324
G1 X36.67766497461929 Y75.0482233502538
G1 X28.088832487309645 Y76.84263959390863
G1 X28.807106598984774 Y84.18020304568527
G1 X33.055837563451774 Y87.8781725888325
G1 X26.95939086294416 Y91.41116751269035
G1 X22.312182741116754 Y86.38832487309644
G1 X22.076142131979694 Y79.84010152284264
G1 X20.69289340101523 Y73.31725888324873
G1 X25.987309644670052 Y71.11421319796955
G1 X31.936548223350254 Y70.88578680203045
G1 X33.621827411167516 Y63.16497461928934
G1 X37.23857868020305 Y67.85279187817258
G1 X41.31218274111675 Y71.17766497461929
G1 X45.18527918781726 Y67.03299492385787
G1 X45.61675126903553 Y59.79441624365482
G1 X40.203045685279186 Y62.70812182741117
G1 X37.22081218274112 Y57.22842639593908
G1 X39.5507614213198 Y50.58375634517766
G1 X46.79695431472081 Y52.05329949238578
G1 X54.200507614213194 Y47.52030456852792
G1 X61.065989847715734 Y54.02284263959391
G1 X53.76903553299492 Y56.36294416243655
G1 X51.49238578680203 Y64.78934010152284
G1 X51.96192893401015 Y70.95685279187818
G1 X47.058375634517766 Y72.9746192893401
G1 X42.48477157360406 Y76.30710659898477
G1 X47.03299492385787 Y79.54568527918782
G1 X50.90609137055837 Y82.94162436548223
G1 X54.79441624365482 Y86.09390862944161
G1 X49.969543147208114 Y88.46192893401016
G1 X46.65736040609137 Y92.56852791878173
G1 X42.61928934010152 Y96.81218274111674
G1 X37.40609137055837 Y98.64213197969542
G1 X32.54060913705584 Y100.64213197969544
G1 X29.82994923857868 Y105.79187817258884
G1 X35.75126903553299 Y106.31472081218274
G1 X40.670050761421315 Y103.88832487309644
G1 X45.84010152284264 Y102.19543147208121
G1 X48.82233502538071 Y98.01776649746193
G1 X52.77664974619289 Y94.26649746192894
G1 X56.56345177664974 Y90.80456852791878
G1 X59.23857868020305 Y95.43401015228426
G1 X60.42639593908629 Y101.1497461928934
G1 X64.68781725888324 Y104.28680203045685
G1 X56.54314720812182 Y105.18781725888324
G1 X54.89593908629441 Y99.42893401015228
G1 X51.06345177664974 Y103.99238578680203
G1 X52.13197969543147 Y108.96446700507613
G1 X45.87309644670051 Y108.36548223350255
G1 X49.70558375634518 Y113.85532994923858
G1 X44.568527918781726 Y115.03045685279189
G1 X40.04822335025381 Y110.65989847715736
G1 X38.83756345177665 Y116.70050761421321
G1 X43.152284263959395 Y120.76649746192894
G1 X50.0253807106599 Y120.46954314720813
G1 X54.46700507614213 Y116.95685279187816
G1 X57.609137055837564 Y120.75126903553299
G1 X63.90355329949238 Y120.5482233502538
G1 X66.97208121827411 Y115.64974619289339
G1 X61.119289340101524 Y115.21065989847715
G1 X56.36040609137056 Y112.17005076142131
G1 X60.07360406091371 Y108.32741116751268
G1 X64.49238578680203 Y109.93654822335026
G1 X69.23604060913705 Y110.70558375634518
G1 X72.89593908629442 Y115.82741116751268
G1 X70.16497461928934 Y120.70304568527918
G1 X76.96446700507614 Y120.51522842639594
G1 X79.20812182741118 Y115.13197969543148
G1 X80.19796954314721 Y109.42639593908629
G1 X74.51015228426397 Y110.24111675126903
G1 X70.66751269035534 Y105.5253807106599
G1 X76.3274111675127 Y104.24365482233503
G1 X79.11675126903553 Y98.21827411167513
G1 X73.65482233502539 Y98.29695431472081
G1 X69.03299492385787 Y100.4517766497462
G1 X64.65228426395939 Y97.08121827411168
G1 X63.494923857868024 Y91.12690355329948
G1 X69.29441624365482 Y93.30456852791878
G1 X75.51776649746193 Y92.28172588832487
G1 X80.25888324873095 Y87.73096446700508
G1 X74.9238578680203 Y86.05583756345177
G1 X69.75888324873097 Y87.2258883248731
G1 X65.01269035532995 Y85.2005076142132
G1 X59.91624365482234 Y86.48477157360405
G1 X56.79187817258884 Y81.17005076142132
G1 X62.17005076142132 Y80.10406091370558
G1 X68.33756345177665 Y79.6015228426396
G1 X73.92893401015228 Y80.27157360406092
G1 X80.03299492385787 Y81.43401015228426
G1 X78.39340101522842 Y75.16497461928934
G1 X78.248730964467 Y69.0482233502538
G1 X71.81472081218274 Y72.93908629441624
G1 X66.72842639593908 Y68.29187817258882
G1 X63.65228426395939 Y74.2741116751269
G1 X57.47208121827411 Y75.38324873096447
G1 X52.180203045685275 Y76.8984771573604
G1 X58.18781725888325 Y70.22842639593908
G1 X58.98223350253807 Y63.525380710659896
G1 X66.26903553299492 Y60.58375634517766
G1 X69.77157360406092 Y54.911167512690355
G1 X74.3274111675127 Y62.1497461928934
G1 X81.92131979695432 Y62.423857868020306
G1 X88.50507614213198 Y58.58121827411168
G1 X90.06091370558377 Y49.36548223350254
G1 X85 Y44.53045685279187
G1 X80.07106598984771 Y41.39593908629442
G1 X84.90355329949239 Y34.1751269035533
G1 X91.01776649746192 Y38.61675126903553
G1 X97.753807106599 Y38.203045685279186
G1 X96.96954314720813 Y31.548223350253807
G1 X90.73350253807106 Y29.13959390862944
G1 X84.29187817258884 Y24.581218274111674
G1 X79.27918781725889 Y28.949238578680202
G1 X77.16497461928934 Y36.248730964467
G1 X72.51776649746193 Y31.880710659898476
G1 X66.76142131979695 Y25.37055837563452
G1 X73.18527918781726 Y25.126903553299492
G1 X77.5253807106599 Y20.791878172588834
G1 X82.38578680203047 Y17.32741116751269
G1 X90.1243654822335 Y21.774111675126903
G1 X95.31725888324873 Y16.921319796954315
G1 X96.89593908629442 Y23.68020304568528
G1 X102.39086294416242 Y27.77918781725888
G1 X104.17005076142132 Y21.81218274111675
G1 X112.10659898477158 Y22.345177664974617
G1 X115.97969543147208 Y27.258883248730964
G1 X121.26395939086294 Y30.27918781725888
G1 X118.3959390862944 Y36.065989847715734
G1 X112.56598984771573 Y32.79441624365482
G1 X108.80456852791879 Y27.70812182741117
G1 X105.13959390862944 Y33.89340101522843
G1 X111.09644670050761 Y39.256345177664976
G1 X104.15482233502537 Y40.51269035532995
G1 X97.36548223350253 Y46.36294416243655
G1 X95.90609137055837 Y55.80964467005076
G1 X101.83502538071066 Y61.48223350253807
G1 X95.4517766497462 Y64.03553299492386
G1 X89.24873096446701 Y66.19289340101523
G1 X84.80710659898477 Y71.11421319796955
G1 X85.17766497461929 Y77.8756345177665
G1 X90.31218274111674 Y79.70812182741116
G1 X86.43147208121829 Y84.25380710659897
G1 X87.75634517766498 Y89.79695431472081
G1 X82.71065989847715 Y93.13451776649745
G1 X85.84263959390864 Y98.52791878172589
G1 X83.37817258883248 Y103.59644670050761
G1 X90.248730964467 Y103.07868020304568
G1 X86.61167512690355 Y108.29949238578679
G1 X86.57868020304569 Y114.48223350253807
G1 X83.55837563451777 Y120.36040609137055
G1 X89.75634517766497 Y120.09898477157361
G1 X96.15736040609137 Y120.48984771573603
G1 X101.41116751269035 Y120.80710659898477
G1 X94.30710659898477 Y115.59390862944163
G1 X91.5253807106599 Y110.01776649746192
G1 X96.58629441624365 Y105.20558375634519
G1 X99.56091370558376 Y100.02030456852792
G1 X94.84010152284264 Y98.2233502538071
G1 X89.80456852791878 Y95.50761421319797
G1 X92.95685279187816 Y91.58883248730965
G1 X93.27157360406092 Y84.8756345177665
G1 X100.86040609137056 Y82.9238578680203
G1 X98.67005076142132 Y88.03807106598984
G1 X98.40355329949239 Y93.52791878172589
G1 X102.93654822335026 Y94.63197969543147
G1 X105.38324873096445 Y99.0482233502538
G1 X103.54314720812182 Y103.43401015228426
G1 X107.83756345177665 Y106.90101522842639
G1 X102.46446700507613 Y108.25126903553299
G1 X98.14467005076142 Y111.4796954314721
G1 X101.40609137055839 Y115.75888324873097
G1 X106.79441624365482 Y120.25634517766498
G1 X111.80964467005076 Y120.35532994923858
G1 X117.9263959390863 Y120.44162436548223
G1 X114.7994923857868 Y115.34517766497461
G1 X107.05583756345177 Y114.19796954314721
G1 X112.1218274111675 Y110.89340101522843
G1 X113.94416243654823 Y105.70812182741116
G1 X110.44670050761422 Y101.2741116751269
G1 X114.7233502538071 Y96.89086294416244
G1 X108.52791878172589 Y94.94416243654823
G1 X105.01776649746192 Y89.42385786802032
G1 X111.95431472081218 Y91.26649746192894
G1 X111.5507614213198 Y86.34263959390863
G1 X106.6497461928934 Y83.90862944162437
G1 X112.90609137055837 Y81.03299492385787
G1 X114.7258883248731 Y75.73857868020305
G1 X118.61928934010152 Y78.07106598984771
G1 X122.60913705583758 Y74.23350253807106
G1 X128.38071065989848 Y72.26395939086294
G1 X122.38071065989848 Y69.09390862944163
G1 X117.52791878172589 Y71.64213197969544
G1 X112.14213197969544 Y69.87817258883248
G1 X106.1497461928934 Y71.91878172588832
G1 X110.10406091370558 Y75.5253807106599
G1 X105.93147208121827 Y78.748730964467
G1 X101.26649746192894 Y75.28426395939087
G1 X96.7741116751269 Y78.8274111675127
G1 X91.49238578680203 Y73.93908629441624
G1 X96.4517766497462 Y71.02030456852792
G1 X101.41878172588832 Y67.97969543147208
G1 X107.2005076142132 Y65.8984771573604
G1 X112.80964467005076 Y63.631979695431475
G1 X117.61928934010152 Y66.46446700507613
G1 X122.40609137055839 Y63.81472081218274
G1 X117.98477157360406 Y60.48477157360406
G1 X119.54568527918782 Y54.46700507614213
G1 X112.93654822335026 Y56.61675126903553
G1 X107.85532994923858 Y59.421319796954315
G1 X103.27918781725887 Y53.29441624365482
G1 X107.248730964467 Y46.70812182741117
G1 X113.13705583756345 Y50.34771573604061
G1 X116.74111675126903 Y43.109137055837564
G1 X122.00253807106598 Y47.2994923857868
G1 X124.002538071066 Y41.213197969543145
G1 X126.90862944162436 Y34.71827411167513
G1 X130.83502538071065 Y29.532994923857867
G1 X138.68781725888326 Y29.236040609137056
G1 X137.39593908629442 Y36.40355329949239
G1 X142.34010152284264 Y41.46700507614213
G1 X151.3197969543147 Y43.2005076142132
G1 X146.39086294416242 Y44.078680203045685
G1 X137.61167512690355 Y43.79441624365482
G1 X136.01269035532997 Y48.48730964467005
G1 X131.62690355329948 Y40.26903553299492
G1 X129.8172588832487 Y46.78934010152284
G1 X132.5761421319797 Y52.827411167512686
G1 X139.4746192893401 Y53.304568527918775
G1 X142.61675126903552 Y48.32994923857868
G1 X145.93401015228426 Y54.56091370558376
G1 X146.2309644670051 Y60.54060913705584
G1 X141.56345177664974 Y58.93654822335026
G1 X135.98477157360406 Y58.07106598984771
G1 X130.2005076142132 Y57.901015228426395
G1 X126.05837563451777 Y52.83502538071066
G1 X124.60659898477158 Y59.36294416243655
G1 X128.64720812182742 Y63.04822335025381
G1 X126.91116751269035 Y67.21827411167513
G1 X133.35532994923858 Y63.22842639593909
G1 X138.04060913705584 Y62.98730964467005
G1 X142.11167512690355 Y64.34263959390863
G1 X145.75380710659897 Y66.50761421319797
G1 X147.1776649746193 Y70.96446700507614
G1 X141.62690355329948 Y70.39593908629442
G1 X137.10152284263958 Y67.96446700507614
G1 X132.10913705583755 Y68.67512690355329
G1 X136.51015228426394 Y73.36294416243655
G1 X142.27918781725887 Y76.60406091370558
G1 X147.41624365482232 Y76.14213197969544
G1 X150.40609137055836 Y80.16751269035532
G1 X146.3274111675127 Y82.70558375634519
G1 X141.18781725888326 Y82.17005076142131
G1 X136.81472081218274 Y79.26903553299493
G1 X131.91624365482232 Y76.9238578680203
G1 X132.35279187817258 Y82.62944162436548
G1 X127.69543147208122 Y82.40101522842639
G1 X126.90101522842639 Y77.40609137055839
G1 X122.38071065989848 Y80.75634517766497
G1 X117.42893401015229 Y84.79695431472081
G1 X117.90355329949239 Y91.01269035532995
G1 X122.98984771573603 Y92.08375634517766
G1 X122.497461928934 Y86.74365482233503
G1 X127.43147208121827 Y88.58375634517768
G1 X132.5507614213198 Y89.17005076142132
G1 X137.19543147208122 Y85.67005076142132
G1 X142.87309644670052 Y87.9238578680203
G1 X148.46192893401016 Y89.80456852791878
G1 X143.4746192893401 Y93.60659898477158
G1 X137.98730964467006 Y92.02030456852793
G1 X133.31725888324874 Y95.54060913705584
G1 X128.748730964467 Y93.60659898477158
G1 X126.0482233502538 Y97.80964467005076
G1 X120.91624365482234 Y97
G1 X118.24365482233503 Y101.98984771573605
G1 X124.18274111675126 Y103.14974619289339
G1 X124.60913705583756 Y108.83502538071068
G1 X119.05837563451776 Y108.05583756345177
G1 X120.76142131979695 Y114.39593908629442
G1 X123.42131979695431 Y119.65736040609137
G1 X128.1522842639594 Y120.36294416243655
G1 X132.80456852791878 Y121.0253807106599
G1 X133.12436548223351 Y116.29187817258882
G1 X127.81979695431473 Y114.30964467005076
G1 X134.34010152284264 Y110.75126903553299
G1 X138.91370558375633 Y114.94670050761421
G1 X137.53045685279187 Y120.38832487309645
G1 X142.31472081218274 Y120.1269035532995
G1 X146.91624365482232 Y120.24619289340102
G1 X152.1751269035533 Y120.4238578680203
G1 X157.8223350253807 Y120.4010152284264
G1 X163.46954314720813 Y120.42893401015228
G1 X160.93147208121826 Y114.8274111675127
G1 X155.35786802030455 Y114.93908629441623
G1 X149.4543147208122 Y114.88578680203047
G1 X144.30964467005077 Y114.11675126903553
G1 X140.84010152284264 Y108.83502538071068
G1 X136.01015228426397 Y104.98477157360406
G1 X129.9314720812183 Y106.99746192893402
G1 X131.13197969543148 Y101.10913705583756
G1 X138.06345177664974 Y98.91116751269035
G1 X144.42131979695432 Y98.40355329949239
G1 X142.4035532994924 Y103.40101522842639
G1 X146.9543147208122 Y107.5
G1 X152.31472081218274 Y109.26395939086294
G1 X158.21827411167513 Y108.27918781725887
G1 X163.66497461928932 Y109.00761421319797
G1 X169.03807106598987 Y110.38578680203045
G1 X166.9314720812183 Y115.62944162436548
G1 X169.53807106598984 Y120.63451776649745
G1 X175.8045685279188 Y120.87055837563452
G1 X175.77918781725887 Y115.67512690355329
G1 X176.32994923857868 Y109.98223350253808
G1 X175.9289340101523 Y104.75888324873097
G1 X176.4289340101523 Y99.93908629441623
G1 X175.7741116751269 Y94.5228426395939
G1 X175.4238578680203 Y89.00761421319797
G1 X175.78934010152284 Y83.40862944162437
G1 X168.89340101522845 Y87.21573604060914
G1 X169.31725888324874 Y92.95431472081218
G1 X162.84263959390864 Y89.33248730964466
G1 X161.992385786802 Y94.88324873096447
G1 X166.2284263959391 Y98.14974619289339
G1 X171.5 Y99.19035532994924
G1 X169.7766497461929 Y104.66497461928935
G1 X164.92893401015226 Y103.56091370558376
G1 X160.1776649746193 Y101.74873096446701
G1 X154.2766497461929 Y103.66751269035532
G1 X149.14974619289342 Y101.41370558375634
G1 X150.34263959390864 Y95.18527918781726
G1 X156.03553299492387 Y97.68781725888324
G1 X156.12182741116752 Y91.4796954314721
G1 X152.62690355329948 Y86.17005076142132
G1 X158.494923857868 Y85.41624365482234
G1 X155.48477157360406 Y80.63959390862945
G1 X160.41370558375635 Y79.04568527918782
G1 X164.34771573604058 Y83.10152284263958
G1 X166.6852791878173 Y77.19035532994924
G1 X170.51015228426397 Y81.21573604060913
G1 X175.68527918781726 Y77.36802030456853
G1 X176.3172588832487 Y71.65228426395939
G1 X171.05837563451774 Y72.9746192893401
G1 X166.19035532994926 Y71.00507614213198
G1 X162.753807106599 Y74.12944162436548
G1 X157.89847715736042 Y73.48223350253807
G1 X153.21319796954316 Y75.72081218274111
G1 X153.61928934010152 Y71.13705583756345
G1 X151.25888324873097 Y67.70812182741116
G1 X149.48223350253807 Y63.73096446700508
G1 X154.41624365482232 Y63.502538071065985
G1 X152.2690355329949 Y58.98223350253807
G1 X152.84010152284264 Y54.05076142131979
G1 X149.27918781725887 Y49.337563451776646
G1 X155.41116751269035 Y47.84517766497462
G1 X155.96954314720813 Y42.324873096446694
G1 X159.1776649746193 Y38.91370558375635
G1 X160.7994923857868 Y44.18020304568528
G1 X163.08375634517768 Y49.492385786802025
G1 X158.9263959390863 Y52.73857868020305
G1 X158.21065989847716 Y58.13197969543147
G1 X163.3502538071066 Y61.012690355329944
G1 X159.7969543147208 Y63.86548223350254
G1 X156.81218274111674 Y67.5482233502538
G1 X160.99238578680203 Y69.3248730964467
G1 X164.25888324873097 Y65.93401015228426
G1 X168.86294416243655 Y66.97208121827411
G1 X172.997461928934 Y67.58121827411168
G1 X176.69289340101523 Y65.55329949238579
G1 X176.51776649746193 Y59.982233502538065
G1 X172.26142131979697 Y61.95939086294416
G1 X167.9492385786802 Y61.55329949238578
G1 X165.91370558375633 Y56.36040609137056
G1 X169.10913705583755 Y50.715736040609144
G1 X173.24365482233503 Y55.654822335025386
G1 X175.82741116751268 Y49.18020304568528
G1 X176.37817258883248 Y41.246192893401016
G1 X171.71319796954316 Y43.22081218274111
G1 X166.746192893401 Y44.07360406091371
G1 X163.43147208121826 Y39.63451776649747
G1 X167.39086294416242 Y38.08629441624365
G1 X172.30964467005077 Y36.91878172588832
G1 X176.1776649746193 Y33.611675126903556
G1 X175.8502538071066 Y27.02030456852792
G1 X171.21319796954313 Y29.012690355329948
G1 X167.87563451776649 Y32.736040609137056
G1 X162.26142131979697 Y33.30456852791878
G1 X163.92131979695432 Y28.060913705583754
G1 X167.76649746192896 Y24.13451776649746
G1 X171.65989847715736 Y20.64213197969543
G1 X176.36040609137055 Y20.97208121827411
G1 X175.10659898477158 Y14.906091370558377
G1 X175.68527918781726 Y8.969543147208123
G1 X169.58375634517765 Y11.776649746192893
G1 X166.9010152284264 Y17.4746192893401
G1 X163.0685279187817 Y13.621827411167512
G1 X156.74111675126903 Y12.934010152284262
G1 X157.62436548223351 Y18.421319796954315
G1 X162.13705583756342 Y21.614213197969544
G1 X158.0253807106599 Y25.901015228426395
G1 X156.08121827411168 Y30.83502538071066
G1 X157.5482233502538 Y34.95685279187817
G1 X153.41116751269035 Y37.588832487309645
G1 X150.36802030456852 Y33.2258883248731
G1 X148.2030456852792 Y38.68781725888325
G1 X143.56598984771574 Y35.857868020304565
G1 X145.38832487309645 Y30.885786802030456
G1 X145.994923857868 Y25.1751269035533
G1 X145.26142131979694 Y18.69289340101523
G1 X151.65736040609136 Y27.54568527918782
G1 X152.2233502538071 Y21.8756345177665
G1 X151.3020304568528 Y15.921319796954315
G1 X148.71319796954316 Y10.345177664974619
G1 X154.0710659898477 Y7.4213197969543145
G1 X158.86802030456852 Y3.2005076142131976
G1 X160.31218274111677 Y8.530456852791877
G1 X165.2994923857868 Y6.8604060913705585
G1 X170.69035532994923 Y5.302030456852792
G1 X175.8020304568528 Y2.6700507614213196
G1 X175.76395939086294 Y-3.248730964467005
G1 X170.58629441624365 Y-1.0279187817258884
G1 X165.33502538071065 Y1.1294416243654823
G1 X160.89847715736042 Y-1.83248730964467
G1 X159.15989847715736 Y-7.065989847715736
G1 X152.25380710659897 Y-13.705583756345177
G1 X148.9492385786802 Y-18.38071065989848
G1 X146.1548223350254 Y-23.96954314720812
G1 X142.95939086294416 Y-29.383248730964468
G1 X139.46192893401016 Y-35.15736040609137
G1 X146.751269035533 Y-35.31218274111675
G1 X152.26142131979697 Y-31.48984771573604
G1 X154.18527918781726 Y-25.116751269035532
G1 X156.1979695431472 Y-19.294416243654823
G1 X157.8248730964467 Y-12.946700507614214
G1 X162.19035532994923 Y-17.083756345177665
G1 X167.18527918781723 Y-18.99492385786802
G1 X171.4314720812183 Y-14.139593908629442
G1 X167.35786802030458 Y-12.67258883248731
G1 X163.23857868020303 Y-10.756345177664974
G1 X165.98984771573606 Y-5.512690355329949
G1 X171.06345177664974 Y-7.781725888324873
G1 X176.0507614213198 Y-8.616751269035532
G1 X176.4314720812183 Y-13.598984771573603
G1 X174.42385786802032 Y-17.583756345177665
G1 X176.75380710659897 Y-21.22842639593909
G1 X175.2994923857868 Y-26.779187817258887
G1 X175.01522842639594 Y-33.45431472081218
G1 X175.37055837563452 Y-39.69796954314721
G1 X173.33502538071065 Y-45.31472081218274
G1 X175.10406091370558 Y-52.28934010152284
G1 X175.87817258883248 Y-57.72335025380711
G1 X170.86040609137055 Y-56.05329949238579
G1 X166.36040609137055 Y-54.18527918781726
G1 X161.8274111675127 Y-54.52030456852792
G1 X160.96700507614213 Y-49.23096446700508
G1 X167.7741116751269 Y-49.51522842639594
G1 X163.8223350253807 Y-42.50253807106599
G1 X168.38578680203045 Y-37.81472081218274
G1 X168.16751269035532 Y-31.269035532994923
G1 X171.92639593908632 Y-21.829949238578678
G1 X168.0203045685279 Y-24.956852791878173
G1 X161.65989847715736 Y-23.82994923857868
G1 X160.753807106599 Y-32.19543147208122
G1 X157.4492385786802 Y-38.766497461928935
G1 X151.03299492385787 Y-40.46700507614213
G1 X155.21065989847716 Y-47.06091370558376
G1 X156.57868020304568 Y-52.7005076142132
G1 X152.002538071066 Y-54.01776649746193
G1 X150.48730964467006 Y-49.753807106598984
G1 X148.19289340101523 Y-46.30964467005076
G1 X143.7309644670051 Y-45.58121827411168
G1 X142.30456852791878 Y-40.83756345177665
G1 X135.47969543147207 Y-43.1751269035533
G1 X138.91878172588832 Y-46.700507614213194
G1 X134.7284263959391 Y-51.142131979695435
G1 X129.17005076142132 Y-58.69796954314721
G1 X134.26395939086294 Y-64.08375634517766
G1 X125.33502538071065 Y-68.62182741116752
G1 X120.67005076142132 Y-61.73604060913705
G1 X117.30710659898477 Y-56.53553299492386
G1 X116.99238578680203 Y-66.89593908629442
G1 X118.23350253807106 Y-72.74619289340102
G1 X112.38578680203047 Y-73.41878172588832
G1 X110.1751269035533 Y-67.18020304568527
G1 X113.02791878172587 Y-61.444162436548226
G1 X106.66243654822335 Y-59.97208121827411
G1 X110.94162436548224 Y-55.175126903553306
G1 X109.85279187817258 Y-48.32233502538071
G1 X113.65228426395939 Y-44.33248730964466
G1 X116.69289340101523 Y-40.035532994923855
G1 X120.9517766497462 Y-35.67766497461929
G1 X115.78426395939087 Y-33.45177664974619
G1 X111.04060913705584 Y-30.51015228426396
G1 X105.20304568527919 Y-29
G1 X102.38578680203047 Y-23.39593908629442
G1 X106.19035532994923 Y-18.98984771573604
G1 X105.76395939086295 Y-12.97715736040609
G1 X99.68020304568527 Y-11.761421319796954
G1 X98.18020304568527 Y-17.893401015228427
G1 X95.53045685279187 Y-23.33502538071066
G1 X89.7258883248731 Y-23.68527918781726
G1 X90.85532994923858 Y-16.761421319796955
G1 X93.12944162436548 Y-11.591370558375635
G1 X101.80203045685278 Y-5.477157360406092
G1 X105.64974619289339 Y0.020304568527918784
G1 X108.7741116751269 Y5.634517766497462
G1 X114.64213197969544 Y8.091370558375635
G1 X120.60659898477157 Y9.390862944162437
G1 X119.04568527918782 Y3.3654822335025383
G1 X125.46700507614213 Y4.565989847715736
G1 X129.48730964467006 Y-0.8578680203045685
G1 X123.93147208121829 Y-1.8375634517766497
G1 X118.5203045685279 Y-2.7588832487309647
G1 X112.81472081218274 Y0.7055837563451777
G1 X114.40355329949239 Y-6.2055837563451774
G1 X108.37817258883248 Y-6.936548223350254
G1 X112.01015228426397 Y-15.936548223350254
G1 X109.76649746192894 Y-24.005076142131976
G1 X115.50507614213197 Y-26.3248730964467
G1 X116.48223350253808 Y-20.3756345177665
G1 X119.54060913705584 Y-14.99746192893401
G1 X121.42131979695432 Y-8.649746192893401
G1 X127.79187817258884 Y-7.682741116751269
G1 X127.40862944162437 Y-14.015228426395938
G1 X124.81725888324873 Y-19.64720812182741
G1 X121.76142131979695 Y-24.48223350253807
G1 X120.45939086294416 Y-29.794416243654823
G1 X126.12944162436548 Y-38.40355329949239
G1 X121.83756345177665 Y-41.642131979695435
G1 X119.748730964467 Y-46.370558375634516
G1 X115.45431472081218 Y-50.56345177664974
G1 X121.66751269035532 Y-51.74365482233503
G1 X126.86802030456853 Y-45.08121827411167
G1 X131.56852791878174 Y-37.02284263959391
G1 X126.24619289340102 Y-31.720812182741117
G1 X128.33248730964468 Y-25.65989847715736
G1 X133.19289340101523 Y-30.434010152284262
G1 X136.91878172588832 Y-24.758883248730964
G1 X132.18781725888326 Y-19.593908629441625
G1 X135.9720812182741 Y-12.720812182741117
G1 X139.6802030456853 Y-5.880710659898477
G1 X141.6522842639594 Y-18.109137055837564
G1 X145.98223350253807 Y-11.408629441624365
G1 X147.5685279187817 Y-3.8832487309644668
G1 X152.51015228426397 Y-7.964467005076142
G1 X154.28680203045684 Y-2.063451776649746
G1 X150.5 Y2.4263959390862944
G1 X144.6751269035533 Y4.3274111675126905
G1 X137.39086294416242 Y2.1421319796954315
G1 X131.41878172588832 Y7.2055837563451774
G1 X126.78172588832487 Y11.637055837563452
G1 X133.36548223350255 Y15.540609137055839
G1 X139.4035532994924 Y10.598984771573603
G1 X137.25888324873097 Y22.21319796954315
G1 X130.47208121827413 Y22.548223350253807
G1 X126.24111675126903 Y18.263959390862944
G1 X121.37817258883248 Y15.380710659898478
G1 X124.14467005076142 Y24.80710659898477
G1 X118.81472081218274 Y21.263959390862944
G1 X115.42893401015228 Y15.205583756345177
G1 X109.70558375634518 Y12.091370558375633
G1 X108.96446700507613 Y17.591370558375633
G1 X101.84263959390863 Y15.906091370558375
G1 X104.03299492385786 Y10.375634517766496
G1 X101.25380710659898 Y5.322335025380712
G1 X97.87055837563452 Y0.8426395939086294
G1 X95.28426395939086 Y-4.535532994923858
G1 X90.43908629441624 Y-5.624365482233502
G1 X86.69796954314721 Y-1.1269035532994924
G1 X92.38071065989848 Y3.3883248730964466
G1 X96.65989847715736 Y10.091370558375633
G1 X88.16751269035534 Y15.3502538071066
G1 X90.04568527918781 Y10.065989847715734
G1 X85.76649746192894 Y5.8274111675126905
G1 X80.13959390862944 Y3.157360406091371
G1 X73.60659898477158 Y1.0888324873096447
G1 X80.93908629441626 Y10.794416243654823
G1 X74.32233502538071 Y14.675126903553299
G1 X69.82233502538071 Y19.111675126903553
G1 X63.921319796954315 Y17.258883248730964
G1 X66.9771573604061 Y11.52030456852792
G1 X73.751269035533 Y8.48223350253807
G1 X66.43908629441624 Y5.022842639593908
G1 X58.931472081218274 Y5.753807106598985
G1 X59.675126903553306 Y12.423857868020304
G1 X53.007614213197975 Y10.461928934010151
G1 X51.33502538071066 Y3.6015228426395938
G1 X46.002538071065985 Y8.081218274111675
G1 X40.62182741116751 Y3.2588832487309642
G1 X39.60659898477157 Y12.081218274111675
G1 X48.91370558375635 Y15.6751269035533
G1 X50.54060913705584 Y23.67258883248731
G1 X55.799492385786806 Y18.413705583756347
G1 X60.753807106598984 Y22.829949238578678
G1 X55.08375634517766 Y28.522842639593907
G1 X61.13451776649746 Y30.091370558375633
G1 X66.39086294416244 Y33.87309644670051
G1 X70.21065989847716 Y39.40355329949239
G1 X74.0253807106599 Y45.72842639593909
G1 X80.002538071066 Y51.931472081218274
G1 X64.21827411167513 Y45.743654822335024
G1 X58.78172588832487 Y38.43654822335025
G1 X50.434010152284266 Y34.24873096446701
G1 X46.505076142131976 Y42.736040609137056
G1 X40.70558375634518 Y36.111675126903556
G1 X41.263959390862944 Y27.48984771573604
G1 X41.90609137055837 Y19.753807106598984
G1 X34.51269035532995 Y18.865482233502537
G1 X26.97715736040609 Y16.95431472081218
G1 X20.677664974619287 Y15.799492385786802
G1 X15.47969543147208 Y12.637055837563452
G1 X12.616751269035532 Y7.883248730964468
G1 X9.718274111675127 Y12.895939086294417
G1 X4.5786802030456855 Y10.1751269035533
G1 X5.228426395939087 Y17.083756345177665
G1 X1.7182741116751268 Y23.781725888324875
G1 X-2.065989847715736 Y16.527918781725887
G1 X-1.9060913705583757 Y10.82994923857868
G1 X-0.2893401015228426 Y3.99746192893401
G1 X-2.964467005076142 Y-1.5634517766497464
G1 X3.8756345177664975 Y-2.66497461928934
G1 X0.2969543147208122 Y-7.426395939086294
G1 X-5.096446700507614 Y-7.152284263959391
G1 X-3.769035532994924 Y-12.784263959390863
G1 X-2.705583756345178 Y-18.18020304568528
G1 X2.446700507614213 Y-13.761421319796954
G1 X9.17005076142132 Y-11.784263959390863
G1 X5.614213197969543 Y-8.126903553299492
G1 X10.251269035532996 Y-4.525380710659899
G1 X7.431472081218274 Y3.2918781725888326
G1 X13.68274111675127 Y1.0431472081218274
G1 X18.368020304568528 Y5.00253807106599
G1 X20.274111675126903 Y9.68020304568528
G1 X24.31218274111675 Y4.835025380710659
G1 X21.375634517766496 Y-1.8756345177664975
G1 X16.15989847715736 Y-4.035532994923858
G1 X14.710659898477157 Y-9.319796954314722
G1 X14.220812182741117 Y-15.406091370558375
G1 X19.076142131979697 Y-19.66497461928934
G1 X20.512690355329948 Y-13.687817258883248
G1 X20.611675126903553 Y-8.025380710659899
G1 X25.48984771573604 Y-6.017766497461929
G1 X28.21319796954315 Y-0.6294416243654822
G1 X25.964467005076145 Y10.246192893401016
G1 X32.192893401015226 Y10.842639593908629
G1 X30.373096446700508 Y5.286802030456853
G1 X34.54060913705584 Y-0.19289340101522845
G1 X40.01269035532995 Y-4.66497461928934
G1 X45.807106598984774 Y-1.0279187817258884
G1 X54.36548223350254 Y-2.456852791878173
G1 X59.02791878172589 Y-7.951776649746193
G1 X61.34263959390863 Y-1.266497461928934
G1 X66.75634517766498 Y-2.230964467005076
G1 X66.10406091370558 Y-8.459390862944163
G1 X63.75634517766497 Y-14.406091370558375
G1 X57.57868020304569 Y-16.736040609137056
G1 X53.19035532994924 Y-11.626903553299492
G1 X48.763959390862944 Y-6.903553299492385
G1 X43.017766497461935 Y-10.550761421319796
G1 X46.88832487309645 Y-15.428934010152284
G1 X51.47208121827411 Y-19.236040609137056
G1 X55.89847715736041 Y-24.28172588832487
G1 X62.08121827411168 Y-21.779187817258887
G1 X68.18020304568527 Y-20.187817258883246
G1 X71.86548223350255 Y-15.644670050761423
G1 X72.93654822335026 Y-8.946700507614214
G1 X78.45431472081218 Y-12.043147208121827
G1 X80.19796954314721 Y-4.743654822335025
G1 X86.00507614213198 Y-9.032994923857867
G1 X84.40862944162436 Y-14.360406091370558
G1 X85.19289340101523 Y-19.809644670050762
G1 X82.18781725888326 Y-24.959390862944165
G1 X78.18527918781726 Y-19.063451776649746
G1 X74.5 Y-24.743654822335024
G1 X67.8274111675127 Y-26.789340101522843
G1 X61.21573604060914 Y-28.406091370558375
G1 X59.43401015228426 Y-34.18527918781726
G1 X66.28172588832487 Y-33.923857868020306
G1 X73.32233502538071 Y-32.93908629441624
G1 X79.65989847715736 Y-37.42893401015229
G1 X79.90609137055839 Y-30.908629441624367
G1 X86.53807106598984 Y-29.48223350253807
G1 X86.96446700507614 Y-35.5507614213198
G1 X85.24619289340102 Y-41.474619289340104
G1 X91.248730964467 Y-41.83502538071066
G1 X94.13959390862944 Y-36.51269035532995
G1 X92.65736040609139 Y-30.274111675126903
G1 X98.92639593908629 Y-28.324873096446698
G1 X100.2284263959391 Y-33.82994923857868
G1 X102.34771573604061 Y-39.51776649746193
G1 X106.41116751269035 Y-34.90609137055837
G1 X111.64720812182742 Y-37.2005076142132
G1 X108.28680203045685 Y-41.515228426395936
G1 X104.34263959390863 Y-45.578680203045685
G1 X97.26903553299492 Y-43.31979695431472
G1 X92.2258883248731 Y-48.299492385786806
G1 X85.67005076142132 Y-48.33248730964467
G1 X86.251269035533 Y-54
G1 X92.01522842639594 Y-55.088832487309645
G1 X96.90862944162436 Y-53.098984771573605
G1 X99.62690355329948 Y-48.763959390862944
G1 X105.7005076142132 Y-51.98730964467005
G1 X102.17766497461929 Y-55.83248730964467
G1 X98.63705583756345 Y-60.39593908629442
G1 X103.75634517766498 Y-64.7741116751269
G1 X101.17512690355329 Y-69.64720812182742
G1 X105.70304568527918 Y-72.16243654822335
G1 X107.02030456852793 Y-77.46446700507614
G1 X111.88832487309645 Y-79.74111675126903
G1 X114.06598984771574 Y-84.6725888324873
G1 X114.50761421319797 Y-89.748730964467
G1 X113.11928934010153 Y-95.35532994923858
G1 X110.1725888324873 Y-100.38832487309645
G1 X107.27918781725889 Y-106.36802030456852
G1 X117.7766497461929 Y-108.31218274111676
G1 X124.20812182741116 Y-98.82487309644671
G1 X131.99238578680203 Y-96.90609137055837
G1 X129.748730964467 Y-88.31218274111676
G1 X123.4492385786802 Y-90.64974619289339
G1 X117.55329949238579 Y-79.4238578680203
G1 X126.87309644670052 Y-79.54314720812182
G1 X137.76649746192894 Y-74.78426395939087
G1 X139.3248730964467 Y-82.8274111675127
G1 X146.43908629441623 Y-84.68527918781726
G1 X145.93654822335026 Y-78.0482233502538
G1 X154.45939086294416 Y-78.98730964467005
G1 X151.5482233502538 Y-71.40609137055837
G1 X143.95939086294416 Y-65.93147208121827
G1 X139.76649746192894 Y-56.807106598984774
G1 X142.98730964467006 Y-50.35532994923858
G1 X146.6776649746193 Y-53.411167512690355
G1 X149.08375634517765 Y-58.29441624365482
G1 X153.6802030456853 Y-58.789340101522846
G1 X154.91116751269035 Y-63.58375634517767
G1 X158.87309644670052 Y-67.29695431472082
G1 X160.4543147208122 Y-72.04568527918782
G1 X163.64974619289342 Y-76.11675126903553
G1 X170.3477157360406 Y-74.73857868020305
G1 X170.51015228426397 Y-68.76395939086295
G1 X165.61167512690358 Y-70.57106598984771
G1 X164.84010152284264 Y-65.30964467005076
G1 X160.57614213197968 Y-62.088832487309645
G1 X158.46446700507616 Y-57.9492385786802
G1 X165.57360406091368 Y-59.48730964467005
G1 X170.28426395939084 Y-62.756345177664976
G1 X175.79695431472084 Y-62.56091370558376
G1 X175.7208121827411 Y-67.18274111675127
G1 X175.77918781725887 Y-71.91878172588832
G1 X175.7030456852792 Y-76.65989847715737
G1 X176.43908629441626 Y-81.2741116751269
G1 X171.76395939086294 Y-81.44923857868021
G1 X167.69289340101523 Y-79.30710659898477
G1 X163.71827411167513 Y-82.41370558375635
G1 X163.4035532994924 Y-88.22842639593908
G1 X169.1979695431472 Y-86.28934010152284
G1 X175.62944162436548 Y-86.07106598984771
G1 X175.1015228426396 Y-90.77918781725887
G1 X175.60913705583758 Y-95.83502538071066
G1 X175.6218274111675 Y-101.57360406091371
G1 X176.0532994923858 Y-107.86040609137055
G1 X172.06852791878174 Y-111.6269035532995
G1 X176.4771573604061 Y-115.25888324873095
G1 X172.82487309644668 Y-118.93908629441624
G1 X176.25888324873097 Y-123.9771573604061
G1 X171.06598984771574 Y-125.21319796954315
G1 X167.6522842639594 Y-115.56598984771574
G1 X167.28934010152284 Y-109.07360406091371
G1 X170.37055837563452 Y-104.24111675126903
G1 X169.98477157360406 Y-97.5507614213198
G1 X168.61421319796955 Y-92.06345177664974
G1 X165.2741116751269 Y-100.1269035532995
G1 X162.9695431472081 Y-105.4517766497462
G1 X158.41878172588832 Y-108.61675126903552
G1 X162.82741116751268 Y-112.69035532994923
G1 X159.005076142132 Y-116.17005076142132
G1 X162.02284263959393 Y-119.94416243654823
G1 X167.57868020304568 Y-120.93654822335026
G1 X164.7766497461929 Y-125.37309644670052
G1 X158.76142131979697 Y-124.75380710659898
G1 X146.06598984771574 Y-124.57106598984772
G1 X146.67258883248732 Y-116.1015228426396
G1 X149.90862944162438 Y-102.13705583756345
G1 X159.3502538071066 Y-100.21827411167513
G1 X162.46700507614213 Y-94.34771573604061
G1 X152.7005076142132 Y-89.2994923857868
G1 X146.63959390862945 Y-93.00253807106598
G1 X141.00761421319797 Y-90.43401015228426
G1 X141.73857868020303 Y-101.16243654822335
G1 X146.29187817258884 Y-107.84771573604061
G1 X130.84010152284264 Y-106.6015228426396
G1 X131.4771573604061 Y-116.00253807106598
G1 X133.04314720812184 Y-124.30710659898477
G1 X124.96954314720811 Y-122.91370558375634
G1 X113.60659898477158 Y-123.10913705583756
G1 X108.66751269035532 Y-118.62182741116752
G1 X102.80710659898476 Y-124.42385786802032
G1 X99.53807106598985 Y-117.79695431472081
G1 X104.44670050761422 Y-112.29695431472081
G1 X98.75888324873097 Y-107.48223350253808
G1 X94.12182741116752 Y-112.64467005076142
G1 X89.26142131979695 Y-108.08375634517766
G1 X82.45939086294416 Y-104.63451776649747
G1 X72.86040609137056 Y-106.42131979695432
G1 X76.3756345177665 Y-100.10406091370558
G1 X67.48223350253807 Y-95.94162436548224
G1 X67.66751269035532 Y-87.47969543147208
G1 X73.54568527918782 Y-92.82233502538071
G1 X80.68527918781726 Y-93.54568527918781
G1 X86.29441624365482 Y-89.08121827411166
G1 X89.41370558375635 Y-82.2715736040609
G1 X97.14974619289339 Y-84.70812182741116
G1 X102.04314720812184 Y-88.34517766497463
G1 X98.00253807106598 Y-93.95431472081219
G1 X92.91370558375634 Y-90.08121827411168
G1 X87.7741116751269 Y-96.11675126903552
G1 X90.33756345177665 Y-101.74619289340102
G1 X96.06852791878171 Y-99.97208121827411
G1 X102.72335025380711 Y-100.78680203045685
G1 X105.18274111675127 Y-94.6979695431472
G1 X108.67766497461929 Y-89.39593908629442
G1 X106.30964467005077 Y-83.53553299492387
G1 X101.25888324873097 Y-78.71065989847716
G1 X97.04314720812184 Y-73.23604060913706
G1 X94.58121827411168 Y-78.86802030456852
G1 X90.73096446700507 Y-74.32233502538071
G1 X85.00761421319797 Y-77.2741116751269
G1 X86.03299492385787 Y-70.25126903553299
G1 X90.93908629441626 Y-67.65736040609137
G1 X96.5 Y-66.36802030456852
G1 X92.2994923857868 Y-61.68781725888324
G1 X86.43401015228426 Y-62.401015228426395
G1 X81.65736040609136 Y-65.87309644670052
G1 X81.06345177664976 Y-58.97969543147208
G1 X76.85532994923858 Y-62.253807106598984
G1 X71.57360406091371 Y-60.54822335025381
G1 X66.24619289340102 Y-57.95177664974619
G1 X66.43908629441624 Y-50.827411167512686
G1 X72.70812182741116 Y-48.911167512690355
G1 X73.70304568527919 Y-55.21827411167513
G1 X79.34771573604061 Y-51.723350253807105
G1 X79.62182741116752 Y-45.48477157360406
G1 X74.1015228426396 Y-42.65989847715736
G1 X68.98730964467005 Y-39.370558375634516
G1 X66.75634517766498 Y-44.92639593908629
G1 X61.58629441624366 Y-40.56598984771574
G1 X60.32994923857868 Y-47.444162436548226
G1 X60.1497461928934 Y-54.700507614213194
G1 X54.766497461928935 Y-57.1497461928934
G1 X55.45177664974619 Y-63.289340101522846
G1 X60.89847715736041 Y-60.89340101522843
G1 X66.57868020304568 Y-64.11421319796955
G1 X61.68020304568528 Y-67.41116751269035
G1 X55.59644670050761 Y-69.01269035532995
G1 X58.525380710659896 Y-74.20304568527919
G1 X63.6751269035533 Y-73.44416243654823
G1 X68.56598984771574 Y-70.25380710659898
G1 X72.29441624365482 Y-66.39086294416244
G1 X76.39086294416244 Y-69.57868020304568
G1 X80.85279187817258 Y-72.60659898477157
G1 X73.76142131979695 Y-74.69796954314721
G1 X78.4238578680203 Y-78.51015228426397
G1 X82.39340101522842 Y-83.65482233502539
G1 X76.18020304568529 Y-85.99492385786802
G1 X71.51522842639594 Y-81.2005076142132
G1 X68.20812182741116 Y-76.46192893401016
G1 X63.73857868020305 Y-81.12944162436548
G1 X57.1497461928934 Y-80.75888324873097
G1 X57.837563451776646 Y-88.68274111675127
G1 X54.98730964467005 Y-96.16497461928932
G1 X49.31472081218274 Y-90.71065989847716
G1 X43.017766497461935 Y-91.58629441624365
G1 X46.41624365482233 Y-95.58375634517766
G1 X49.172588832487314 Y-99.57868020304568
G1 X49.29187817258884 Y-104.52791878172589
G1 X52.119289340101524 Y-109.0507614213198
G1 X58.48223350253807 Y-104.39340101522843
G1 X58.68781725888325 Y-111.88578680203045
G1 X66.03299492385787 Y-115.18020304568529
G1 X78.8502538071066 Y-112.95939086294416
G1 X85.44670050761422 Y-114.44162436548224
G1 X91.05583756345177 Y-118.86548223350253
G1 X93.45939086294416 Y-124.70558375634518
G1 X83.82233502538071 Y-122.95939086294416
G1 X74.25380710659898 Y-121.18527918781726
G1 X61.1751269035533 Y-123.74111675126903
G1 X53.934010152284266 Y-122.36294416243655
G1 X49.84010152284264 Y-125.69796954314722
G1 X42.39340101522843 Y-125.48223350253807
G1 X43.95939086294416 Y-121.32994923857868
G1 X48.99492385786802 Y-119.82994923857868
G1 X52.10659898477157 Y-115.14467005076142
G1 X46.20558375634518 Y-109.76395939086295
G1 X45.75634517766497 Y-115.20558375634519
G1 X40.431472081218274 Y-117.22081218274111
G1 X36.15736040609137 Y-120.51776649746193
G1 X36.256345177664976 Y-125.36040609137055
G1 X30.266497461928935 Y-125.01522842639594
G1 X25.621827411167516 Y-122.75888324873095
G1 X20.63705583756345 Y-125.17005076142132
G1 X17.286802030456855 Y-120.57106598984772
G1 X15.167512690355329 Y-115.65989847715736
G1 X12.147208121827411 Y-124.47969543147208
G1 X4.898477157360406 Y-124.22335025380711
G1 X-1.3045685279187818 Y-122.94162436548223
G1 X-7.573604060913706 Y-123.64467005076142
G1 X-14.786802030456855 Y-123.6497461928934
G1 X-22.573604060913706 Y-123.80710659898477
G1 X-30.213197969543145 Y-124.15736040609136
G1 X-38.64720812182741 Y-124.18527918781726
G1 X-33.83756345177665 Y-118.00761421319797
G1 X-25.84517766497462 Y-116.44923857868021
G1 X-17.946700507614214 Y-116.33756345177665
G1 X-14.81472081218274 Y-109.31725888324874
G1 X-22.565989847715734 Y-108.95431472081219
G1 X-25.80203045685279 Y-102.73096446700508
G1 X-18.185279187817258 Y-101.05076142131979
G1 X-11.786802030456853 Y-102.76395939086294
G1 X-10.497461928934012 Y-94.65736040609137
G1 X-5.708121827411167 Y-99.35786802030456
G1 X0.4010152284263959 Y-102.35279187817258
G1 X3.4060913705583755 Y-108.88578680203045
G1 X-5.444162436548224 Y-107.98984771573603
G1 X-9.01776649746193 Y-115.50507614213197
G1 X-0.32487309644670054 Y-115.23096446700508
G1 X7.33502538071066 Y-117.40101522842639
G1 X10.82741116751269 Y-111.7741116751269
G1 X10.055837563451778 Y-106.14467005076142
G1 X7.467005076142133 Y-100.97969543147208
G1 X4.030456852791878 Y-95.94416243654821
G1 X-1.7461928934010151 Y-92.93147208121826
G1 X-5.248730964467006 Y-87.33248730964468
G1 X-8.416243654822335 Y-80.83756345177665
G1 X-1.4187817258883249 Y-79.15989847715737
G1 X1.779187817258883 Y-85.18274111675127
G1 X5.162436548223351 Y-89.80710659898477
G1 X10.51522842639594 Y-93.14467005076142
G1 X13.322335025380712 Y-98.93147208121829
G1 X18.718274111675125 Y-100.44162436548223
G1 X15.857868020304569 Y-105.248730964467
G1 X18.200507614213198 Y-110.90101522842639
G1 X22.428934010152286 Y-106.99492385786803
G1 X23.90609137055838 Y-102.12944162436548
G1 X23.61928934010152 Y-96.59137055837563
G1 X29.428934010152282 Y-100.30964467005076
G1 X29.461928934010153 Y-94.50253807106598
G1 X34.28172588832487 Y-96.57360406091371
G1 X35.67766497461929 Y-102.28680203045685
G1 X29.01015228426396 Y-106.20812182741118
G1 X24.984771573604057 Y-112.38832487309645
G1 X22.47969543147208 Y-117.28426395939087
G1 X29.921319796954315 Y-118.32994923857868
G1 X35.233502538071065 Y-114.58883248730965
G1 X30.380710659898476 Y-112.14467005076142
G1 X35.08121827411168 Y-108.01269035532995
G1 X40.28934010152284 Y-111.58121827411166
G1 X41.27157360406091 Y-106.10659898477158
G1 X43.24873096446701 Y-101.51269035532994
G1 X40.035532994923855 Y-97.30456852791878
G1 X37.88324873096447 Y-92.1218274111675
G1 X33.21573604060914 Y-90.03045685279189
G1 X33.515228426395936 Y-84.28680203045685
G1 X38.88578680203046 Y-86.57106598984771
G1 X44.48730964467005 Y-86.55329949238579
G1 X49.36040609137056 Y-84.7715736040609
G1 X49.36294416243655 Y-79.25380710659898
G1 X46.66497461928934 Y-74.86294416243655
G1 X51.74365482233503 Y-73.71065989847716
G1 X49.88324873096447 Y-66.46954314720813
G1 X45.45177664974619 Y-69.85786802030458
G1 X40.5736040609137 Y-70.09390862944161
G1 X41.81472081218274 Y-75.65736040609137
G1 X43.987309644670056 Y-81.06852791878171
G1 X38.401015228426395 Y-81.19289340101523
G1 X36.733502538071065 Y-76.53299492385787
G1 X36.04822335025381 Y-71.88832487309645
G1 X32 Y-68.93908629441624
G1 X26.87055837563452 Y-69.71065989847716
G1 X26.794416243654823 Y-75.11928934010152
G1 X31.398477157360407 Y-74.2233502538071
G1 X32.04314720812183 Y-79.23350253807106
G1 X27.58375634517766 Y-81.90862944162436
G1 X28.746192893401016 Y-86.91624365482234
G1 X26.032994923857867 Y-91.26903553299492
G1 X23.355329949238577 Y-86.54060913705584
G1 X20.83502538071066 Y-91.23604060913706
G1 X17.446700507614214 Y-95.0253807106599
G1 X15.383248730964468 Y-89.96954314720811
G1 X17.763959390862944 Y-85.64720812182742
G1 X21.19035532994924 Y-82.00253807106598
G1 X23.936548223350258 Y-78.59390862944163
G1 X20.710659898477157 Y-74.84010152284264
G1 X16.076142131979697 Y-72.93147208121827
G1 X16.15989847715736 Y-67.27918781725889
G1 X21.733502538071065 Y-68.19035532994924
G1 X19.279187817258883 Y-61.82233502538071
G1 X23.230964467005077 Y-57.63197969543147
G1 X26.53299492385787 Y-63.00253807106599
G1 X32.17766497461929 Y-61.68781725888324
G1 X37.02030456852792 Y-66.34263959390863
G1 X42.57106598984771 Y-64.33756345177665
G1 X38.515228426395936 Y-60.1243654822335
G1 X43.49238578680203 Y-56.487309644670056
G1 X48.8248730964467 Y-60.568527918781726
G1 X49.17005076142132 Y-54.002538071065985
G1 X54.088832487309645 Y-50.233502538071065
G1 X54.2994923857868 Y-44.03045685279188
G1 X54.24111675126903 Y-37.85279187817259
G1 X53.380710659898476 Y-30.63705583756345
G1 X48.70304568527919 Y-25.35532994923858
G1 X43.49238578680203 Y-29.913705583756347
G1 X47.82994923857868 Y-35.01776649746193
G1 X47.24873096446701 Y-41.748730964467
G1 X46.5253807106599 Y-48.2741116751269
G1 X39.857868020304565 Y-50.97969543147208
G1 X34.941624365482234 Y-54.621827411167516
G1 X28.781725888324875 Y-54.088832487309645
G1 X26.238578680203048 Y-47.35532994923858
G1 X21.276649746192895 Y-51.025380710659896
G1 X19.365482233502537 Y-43.04822335025381
G1 X26.441624365482234 Y-40.098984771573605
G1 X33.370558375634516 Y-38.13959390862944
G1 X32.89593908629441 Y-46.890862944162436
G1 X39.82233502538071 Y-43.870558375634516
G1 X40.54314720812183 Y-36.753807106598984
G1 X27.027918781725887 Y-31.17258883248731
G1 X32.23857868020305 Y-23.979695431472084
G1 X36.253807106598984 Y-29.626903553299492
G1 X42.07106598984772 Y-22.71065989847716
G1 X39.25888324873097 Y-17.256345177664976
G1 X36.0507614213198 Y-10.934010152284264
G1 X31.195431472081218 Y-7.00253807106599
G1 X26.652284263959388 Y-12.154822335025381
G1 X31.51015228426396 Y-16.038071065989847
G1 X25.66497461928934 Y-18.82233502538071
G1 X23.418781725888323 Y-24.583756345177665
G1 X17.439086294416242 Y-27.15228426395939
G1 X19.355329949238577 Y-34.67005076142132
G1 X12.563451776649746 Y-37.642131979695435
G1 X11.200507614213198 Y-44.944162436548226
G1 X15.078680203045685 Y-49.29695431472081
G1 X15.104060913705585 Y-55.84771573604061
G1 X8.246192893401016 Y-53.441624365482234
G1 X2.00507614213198 Y-60.09644670050761
G1 X7.809644670050762 Y-60.441624365482234
G1 X12.939086294416244 Y-62.44670050761421
G1 X10.2005076142132 Y-68.87817258883248
G1 X5.149746192893401 Y-74.13197969543147
G1 X11.129441624365482 Y-75.65736040609137
G1 X15.038071065989849 Y-79.9746192893401
G1 X10.761421319796954 Y-85.4771573604061
G1 X6.837563451776649 Y-80.63451776649745
G1 X-0.6903553299492386 Y-72.21827411167513
G1 X4.4517766497461935 Y-66.95685279187816
G1 X-1.515228426395939 Y-65.73096446700507
G1 X-4.862944162436548 Y-59.398477157360404
G1 X-5.459390862944162 Y-52.16497461928934
G1 X0.7563451776649746 Y-53.86294416243655
G1 X4 Y-48.00507614213198
G1 X-2.266497461928934 Y-44.700507614213194
G1 X-9.210659898477157 Y-45.83248730964467
G1 X-12.583756345177665 Y-51.76903553299493
G1 X-16.913705583756343 Y-46.97208121827411
G1 X-21.505076142131976 Y-44.078680203045685
G1 X-14.939086294416244 Y-40.56091370558376
G1 X-8.977157360406093 Y-38.329949238578685
G1 X-2.0913705583756346 Y-36.41878172588832
G1 X4.662436548223351 Y-40.736040609137056
G1 X4.626903553299492 Y-33.223350253807105
G1 X11.043147208121828 Y-29.238578680203045
G1 X12.923857868020306 Y-21.8756345177665
G1 X7.769035532994923 Y-17.873096446700508
G1 X6.563451776649746 Y-24.13451776649746
G1 X1.8629441624365481 Y-20.728426395939085
G1 X0.07868020304568528 Y-27.233502538071065
G1 X-8.050761421319796 Y-31.205583756345177
G1 X-15.167512690355329 Y-33.06598984771574
G1 X-10.456852791878173 Y-25.276649746192895
G1 X-4.918781725888325 Y-23.705583756345177
G1 X-8.449238578680202 Y-17.883248730964468
G1 X-13.213197969543147 Y-14.568527918781726
G1 X-9.388324873096446 Y-10.637055837563452
G1 X-9.901015228426397 Y-3.799492385786802
G1 X-7.873096446700507 Y2.779187817258883
G1 X-9.073604060913706 Y10.426395939086294
G1 X-9.269035532994923 Y16.35786802030457
G1 X-6.6421319796954315 Y22.682741116751266
G1 X-3.5228426395939088 Y28.95939086294416
G1 X-9.708121827411167 Y36.54568527918782
G1 X-10.789340101522843 Y29.52284263959391
G1 X-17.972081218274113 Y28.81979695431472
G1 X-23.8502538071066 Y31.576142131979697
G1 X-26.31979695431472 Y24.786802030456855
G1 X-27.17766497461929 Y17.743654822335024
G1 X-21.071065989847714 Y19.794416243654823
G1 X-14.368020304568528 Y22.281725888324875
G1 X-15.784263959390863 Y15.063451776649746
G1 X-16.17005076142132 Y7.058375634517766
G1 X-22.426395939086294 Y12.97715736040609
G1 X-25.329949238578678 Y6.583756345177665
G1 X-29.289340101522843 Y-0.9771573604060914
G1 X-21.8248730964467 Y0.42385786802030456
G1 X-19.878172588832488 Y-5.1091370558375635
G1 X-15.225888324873097 Y-1.8071065989847714
G1 X-14.921319796954315 Y-8.591370558375635
G1 X-21.248730964467004 Y-10.352791878172589
G1 X-18.434010152284262 Y-14.418781725888326
G1 X-20.596446700507617 Y-19.17005076142132
G1 X-14.106598984771574 Y-20.449238578680205
G1 X-16.545685279187815 Y-26.04060913705584
G1 X-21.715736040609137 Y-24.383248730964468
G1 X-23.954314720812185 Y-30.20304568527919
G1 X-27.13705583756345 Y-24.225888324873097
G1 X-31.538071065989847 Y-27.215736040609137
G1 X-33.119289340101524 Y-21.015228426395936
G1 X-35.29441624365482 Y-11.444162436548224
G1 X-33.13959390862944 Y-15.70304568527919
G1 X-27.243654822335024 Y-18.796954314720814
G1 X-25.626903553299492 Y-13.83502538071066
G1 X-25.416243654822335 Y-6.611675126903553
G1 X-29.83248730964467 Y-9.758883248730964
G1 X-34.63705583756345 Y-5.687817258883249
G1 X-36.601522842639596 Y0.4289340101522843
G1 X-41.276649746192895 Y3.6065989847715736
G1 X-37.56345177664975 Y8.444162436548224
G1 X-32.86802030456853 Y5.126903553299492
G1 X-31.017766497461928 Y12.560913705583756
G1 X-37.60659898477157 Y14.398477157360405
G1 X-38.58121827411168 Y19.97715736040609
G1 X-32.68274111675127 Y19.568527918781726
G1 X-33.901015228426395 Y25.720812182741113
G1 X-39.85279187817259 Y25.6243654822335
G1 X-43.55837563451777 Y30.124365482233504
G1 X-45.77918781725888 Y25.870558375634516
G1 X-44.77664974619289 Y20.725888324873097
G1 X-50.32233502538071 Y18.096446700507613
G1 X-52.90609137055838 Y24.078680203045685
G1 X-57.84010152284264 Y22.761421319796952
G1 X-63.1497461928934 Y31.14467005076142
G1 X-63.40355329949239 Y36.69035532994924
G1 X-61.36040609137056 Y42.84010152284264
G1 X-58.921319796954315 Y46.723350253807105
G1 X-55.13705583756345 Y49.692893401015226
G1 X-53.19035532994924 Y44.95177664974619
G1 X-56.48223350253807 Y40.921319796954315
G1 X-56.90862944162436 Y35.04568527918782
G1 X-56.19543147208121 Y29.35279187817259
G1 X-50.67766497461929 Y29.9746192893401
G1 X-51.131979695431475 Y34.888324873096444
G1 X-51.695431472081225 Y39.609137055837564
G1 X-46.79187817258884 Y38.75888324873097
G1 X-46.17258883248731 Y34.23857868020305
G1 X-41.19796954314721 Y35.022842639593904
G1 X-36.26142131979695 Y31.80710659898477
G1 X-29.98984771573604 Y31.80710659898477
G1 X-24.85279187817259 Y40.13705583756345
G1 X-31.370558375634516 Y40.017766497461935
G1 X-36.786802030456855 Y38.68781725888325
G1 X-42.18781725888324 Y40.8756345177665
G1 X-43.45177664974619 Y46.35532994923857
G1 X-47.78426395939086 Y43.65228426395939
G1 X-49.31725888324873 Y48.494923857868024
G1 X-45.97969543147208 Y52.43401015228426
G1 X-40.921319796954315 Y50.850253807106604
G1 X-36.47969543147208 Y45.746192893401016
G1 X-29.54060913705584 Y46.07106598984772
G1 X-31.700507614213194 Y51.54822335025381
G1 X-36.639593908629436 Y53.95685279187817
G1 X-32.72081218274111 Y58.11675126903553
G1 X-27.065989847715738 Y56.08629441624365
G1 X-24.878172588832488 Y50.535532994923855
G1 X-20.941624365482234 Y45.49238578680203
G1 X-18.31218274111675 Y36.766497461928935
G1 X-14.502538071065988 Y41.51015228426396
G1 X-15.274111675126905 Y47.50761421319797
G1 X-13.010152284263958 Y53.06345177664974
G1 X-18.921319796954315 Y52.59390862944162
G1 X-21.5253807106599 Y57.95685279187818
G1 X-15.670050761421319 Y59.474619289340104
G1 X-10.324873096446701 Y58.576142131979694
G1 X-6.527918781725889 Y63.8248730964467
G1 X-2.0913705583756346 Y66.72842639593908
G1 X0.053299492385786795 Y62.266497461928935
G1 X3.631979695431472 Y57.809644670050766
G1 X-4.581218274111675 Y58.68274111675127
G1 X-1.0456852791878173 Y54.81472081218274
G1 X3.3375634517766493 Y51.32994923857868
G1 X5.071065989847716 Y46.22081218274111
G1 X0.06852791878172589 Y43.24873096446701
G1 X-2.6776649746192893 Y48.96954314720812
G1 X-6.852791878172589 Y53.253807106598984
G1 X-9.091370558375635 Y48.19543147208122
G1 X-6.373096446700508 Y43.07106598984771
G1 X-2.434010152284264 Y37.34517766497462
G1 X5.6395939086294415 Y38.421319796954315
G1 X10.598984771573603 Y43.025380710659896
G1 X16.378172588832488 Y44.40609137055837
G1 X21.928934010152282 Y46.9492385786802
G1 X28.279187817258883 Y44.07360406091371
G1 X21.68781725888325 Y38.256345177664976
G1 X14.446700507614214 Y36.04314720812183
G1 X16.20812182741117 Y26.921319796954315
G1 X8.324873096446701 Y30.215736040609137
G1 X2.200507614213198 Y32.015228426395936
G1 X8.842639593908629 Y23.946700507614214
G1 X14.114213197969542 Y19.604060913705585
G1 X21.885786802030456 Y22.309644670050762
G1 X23.5 Y29.434010152284262
G1 X28.309644670050762 Y24.928934010152286
G1 X33.190355329949234 Y30.609137055837564
G1 X29.525380710659896 Y36.743654822335024
G1 X35.35786802030457 Y42.9492385786802
G1 X33.11675126903553 Y50.09390862944162
G1 X27.34263959390863 Y50.55837563451776
G1 X29.715736040609137 Y57.2741116751269
G1 X27.95685279187817 Y64.5761421319797
G1 X21.873096446700508 Y66.4746192893401
G1 X22.98223350253807 Y60.243654822335024
G1 X21.911167512690355 Y53.75634517766497
G1 X17.083756345177665 Y62.243654822335024
G1 X14.880710659898478 Y56.05837563451777
G1 X16.591370558375637 Y50.598984771573605
G1 X10.774111675126903 Y49.68527918781726
G1 X8.291878172588833 Y54.246192893401016
G1 X9.725888324873097 Y59.44416243654822
G1 X5.81725888324873 Y63.97715736040609
G1 X3.4543147208121825 Y68.18020304568527
G1 X-0.6218274111675127 Y71.79441624365482
G1 X0.14974619289340102 Y77.3984771573604
G1 X4.621827411167513 Y73.61421319796955
G1 X9.16497461928934 Y75.77157360406092
G1 X9.403553299492385 Y69.65736040609137
G1 X11.644670050761421 Y64.74619289340102
G1 X16.439086294416242 Y68.25888324873097
G1 X14.271573604060915 Y72.91370558375634
G1 X15.763959390862945 Y78.15736040609137
G1 X16.51776649746193 Y83.84517766497461
G1 X11.01776649746193 Y85.82741116751268
G1 X9.761421319796955 Y81.248730964467
G1 X4.314720812182741 Y80.70812182741116
G1 X6.251269035532995 Y86.5279187817259
G1 X1.4568527918781726 Y86.42131979695432
G1 X-1.5 Y82.91878172588832
G1 X-5.568527918781726 Y79.44923857868021
G1 X-4.65736040609137 Y74.60659898477158
G1 X-6.847715736040609 Y69.83248730964468
G1 X-11.606598984771574 Y65.69543147208121
G1 X-17.70812182741117 Y64.69796954314721
G1 X-23.16243654822335 Y63.736040609137056
G1 X-28.413705583756347 Y62.61928934010152
G1 X-28.208121827411166 Y68.62182741116752
G1 X-28.781725888324875 Y74.78680203045685
G1 X-35.79441624365482 Y71.47969543147208
G1 X-34.799492385786806 Y65.15989847715736
G1 X-38.45685279187818 Y61.065989847715734
G1 X-42.51015228426396 Y56.682741116751274
G1 X-47.7741116751269 Y57.60406091370559
G1 X-50.35786802030457 Y62.27918781725889
G1 X-54.6497461928934 Y64.75380710659898
G1 X-53.180203045685275 Y58.13451776649746
G1 X-51.434010152284266 Y53.38578680203046
G1 X-57.162436548223354 Y54.4263959390863
G1 X-60.9746192893401 Y51.64467005076142
G1 X-62.67005076142132 Y57.18527918781726
G1 X-57.62944162436548 Y59.56345177664975
G1 X-61.1751269035533 Y62.423857868020306
G1 X-59.59390862944162 Y67.19543147208122
G1 X-55.654822335025386 Y71.34517766497461
G1 X-50.9746192893401 Y70.63451776649745
G1 X-47.95685279187818 Y66.81218274111674
G1 X-44.44416243654822 Y62.6269035532995
G1 X-41.96954314720812 Y67.90862944162437
G1 X-41.37817258883249 Y74.18274111675127
G1 X-46.370558375634516 Y73.31725888324873
G1 X-52.324873096446694 Y76.21065989847716
G1 X-49.46192893401015 Y81.0253807106599
G1 X-52.994923857868024 Y85.71065989847716
G1 X-55.63705583756345 Y89.57106598984772
G1 X-57.52030456852792 Y93.69289340101523
G1 X-62.17005076142132 Y94.83502538071066
G1 X-60.472081218274106 Y89.94416243654823
G1 X-65.31472081218274 Y90.34010152284264
G1 X-67.76903553299492 Y85.74619289340103
G1 X-63.296954314720814 Y86.2284263959391
G1 X-58.69796954314721 Y84.74111675126905
G1 X-55.35532994923858 Y80.98477157360406
G1 X-59.11675126903553 Y77.90355329949239
G1 X-60.34517766497462 Y73.35532994923858
G1 X-65.002538071066 Y76.65736040609137
G1 X-63.23096446700507 Y81.51015228426395
G1 X-68.58121827411168 Y80.91624365482234
G1 X-72.64213197969542 Y85.85279187817258
G1 X-70.55583756345177 Y90.28934010152284
G1 X-67.19543147208122 Y94.36040609137055
G1 X-71.3274111675127 Y95.2005076142132
G1 X-74.56345177664974 Y93.05583756345177
G1 X-76.90862944162436 Y89.77918781725889
G1 X-79.65736040609137 Y85.06852791878173
G1 X-76.24365482233503 Y79.67766497461929
G1 X-71.97208121827411 Y76.18274111675126
G1 X-76.97208121827411 Y69.90101522842639
G1 X-82.28426395939087 Y68.20812182741116
G1 X-77.84263959390863 Y63.62182741116751
G1 X-72.36294416243655 Y62.31218274111675
G1 X-70.80456852791878 Y67.08375634517766
G1 X-73.18527918781726 Y71.74365482233503
G1 X-68.42639593908629 Y72.60659898477157
G1 X-64.5507614213198 Y70.54314720812184
G1 X-64.93908629441624 Y66.21065989847716
G1 X-66.69035532994924 Y62.08629441624366
G1 X-68.51522842639594 Y57.743654822335024
G1 X-66.21827411167513 Y52.9238578680203
G1 X-64.73604060913706 Y47.95939086294417
G1 X-66.93147208121827 Y43.48984771573604
G1 X-70.67766497461929 Y48.05837563451776
G1 X-71.59137055837563 Y53.26395939086295
G1 X-77.0507614213198 Y51.86040609137056
G1 X-80.68781725888326 Y47.12436548223351
G1 X-85.85786802030456 Y45.27157360406092
G1 X-90.05583756345177 Y40.43654822335025
G1 X-87.95431472081218 Y35.022842639593904
G1 X-83.5203045685279 Y30.16497461928934
G1 X-76.83756345177665 Y29.880710659898476
G1 X-76.48984771573603 Y35.96192893401015
G1 X-81.60913705583755 Y39.35279187817259
G1 X-76.06598984771574 Y45.5
G1 X-73.2766497461929 Y41.76142131979695
G1 X-69.01015228426397 Y38.411167512690355
G1 X-70.02030456852792 Y33.7741116751269
G1 X-69.8984771573604 Y29.00253807106599
G1 X-74.0482233502538 Y17.071065989847718
G1 X-71.85532994923858 Y11.819796954314722
G1 X-66.89340101522842 Y15.860406091370558
G1 X-63.411167512690355 Y11.901015228426397
G1 X-67.27664974619289 Y7.5761421319796955
G1 X-64.3527918781726 Y2.0913705583756346
G1 X-60.4238578680203 Y6.934010152284263
G1 X-53.6751269035533 Y6.949238578680204
G1 X-56.46700507614213 Y12.571065989847716
G1 X-56.776649746192895 Y17.51522842639594
G1 X-49.86548223350254 Y11.812182741116752
G1 X-44.84010152284264 Y15.180203045685278
G1 X-43.35532994923858 Y10.048223350253807
G1 X-47.444162436548226 Y6.083756345177665
G1 X-52.42639593908629 Y0.9340101522842639
G1 X-51.58375634517767 Y-4.571065989847716
G1 X-46.703045685279186 Y-8.928934010152284
G1 X-46.837563451776646 Y-1.3274111675126905
G1 X-40.77918781725888 Y-3.532994923857868
G1 X-40.09644670050761 Y-9.071065989847716
G1 X-41.20812182741116 Y-14.32233502538071
G1 X-40.47715736040609 Y-19.428934010152282
G1 X-37.49238578680203 Y-24.22335025380711
G1 X-42.41370558375635 Y-26.649746192893403
G1 X-37.08121827411168 Y-30.560913705583754
G1 X-42.827411167512686 Y-33.63197969543147
G1 X-37.642131979695435 Y-37.67766497461929
G1 X-32.52030456852792 Y-41.5253807106599
G1 X-31.50253807106599 Y-34.12690355329949
G1 X-26.1751269035533 Y-37.66497461928934
G1 X-20.182741116751266 Y-37.32233502538071
G1 X-27.048223350253807 Y-44.484771573604064
G1 X-24.804568527918782 Y-50.680203045685275
G1 X-19.106598984771573 Y-53.61167512690355
G1 X-12.647208121827411 Y-57.41370558375635
G1 X-11.038071065989847 Y-62.98223350253807
G1 X-7.520304568527919 Y-67.96192893401015
G1 X-6.83248730964467 Y-74.15482233502539
G1 X-15.271573604060913 Y-68.23096446700507
G1 X-13.406091370558375 Y-75.04568527918781
G1 X-15.256345177664974 Y-81.78172588832487
G1 X-12.642131979695431 Y-87.59898477157361
G1 X-20.733502538071065 Y-86.65989847715736
G1 X-17.47969543147208 Y-93.00253807106598
G1 X-23.558375634517766 Y-95.85279187817258
G1 X-26.78680203045685 Y-89.67005076142131
G1 X-33.74111675126903 Y-90.9517766497462
G1 X-32.36802030456853 Y-84.33502538071066
G1 X-38.51015228426396 Y-82.91116751269035
G1 X-41.901015228426395 Y-78.43908629441624
G1 X-47.78172588832487 Y-80.76903553299493
G1 X-45.65736040609137 Y-87.15228426395939
G1 X-39.87309644670051 Y-88.61421319796955
G1 X-39.98223350253807 Y-94.53299492385787
G1 X-37.40609137055837 Y-100.52791878172587
G1 X-31.11421319796954 Y-96.91624365482234
G1 X-32.45685279187817 Y-104.70304568527919
G1 X-31.243654822335024 Y-110.94416243654821
G1 X-40.07868020304569 Y-107.69289340101523
G1 X-39.911167512690355 Y-114.61675126903555
G1 X-44.78426395939087 Y-119.41116751269035
G1 X-48.41624365482233 Y-112.70304568527919
G1 X-52.192893401015226 Y-118.18020304568527
G1 X-47.51015228426396 Y-124.96700507614213
G1 X-55.398477157360404 Y-124.61928934010153
G1 X-61.33756345177665 Y-121.66751269035532
G1 X-63.67766497461929 Y-125.76649746192894
G1 X-70.05583756345177 Y-125.60152284263958
G1 X-67.62944162436548 Y-120.69035532994924
G1 X-64.02030456852792 Y-115.59390862944163
G1 X-58.08121827411168 Y-117.75634517766498
G1 X-58.13197969543147 Y-112.07868020304568
G1 X-54.06091370558376 Y-107.23350253807106
G1 X-60.24873096446701 Y-105.5482233502538
G1 X-58.99492385786802 Y-98
G1 X-52.29187817258883 Y-100.15736040609139
G1 X-47.51015228426396 Y-106.1015228426396
G1 X-44.390862944162436 Y-100.33756345177665
G1 X-47.743654822335024 Y-93.62944162436548
G1 X-54.67005076142132 Y-92.34263959390861
G1 X-52.743654822335024 Y-85.65228426395939
G1 X-59.76903553299493 Y-83.74111675126903
G1 X-61.81472081218274 Y-89.65482233502539
G1 X-68.36548223350253 Y-94.84010152284264
G1 X-68.47969543147208 Y-102.41624365482232
G1 X-69.91116751269035 Y-110.39340101522842
G1 X-77.2258883248731 Y-117.4771573604061
G1 X-83.55076142131979 Y-123.01522842639594
G1 X-88.09898477157361 Y-114.42893401015228
G1 X-91.19289340101523 Y-122.73857868020303
G1 X-101.33248730964468 Y-119.20050761421321
G1 X-100.43654822335026 Y-109.46700507614213
G1 X-98.69543147208121 Y-98.3959390862944
G1 X-92.11928934010153 Y-104.82994923857868
G1 X-81.10659898477158 Y-105.37055837563452
G1 X-86.6751269035533 Y-94.91370558375635
G1 X-92.29695431472081 Y-85.75888324873097
G1 X-93.62182741116752 Y-73.26395939086295
G1 X-85.58121827411168 Y-62.964467005076145
G1 X-98.09390862944163 Y-61.02284263959391
G1 X-110.9746192893401 Y-76.14213197969544
G1 X-105.748730964467 Y-87.06598984771574
G1 X-110.40609137055837 Y-96.90609137055837
G1 X-114.37563451776649 Y-104.14720812182742
G1 X-119.78172588832487 Y-109.36548223350255
G1 X-123.51015228426397 Y-113.91878172588832
G1 X-120.80456852791878 Y-118.6472081218274
G1 X-112.11167512690355 Y-113.48730964467006
G1 X-110.92639593908629 Y-123.35279187817258
G1 X-122.502538071066 Y-125.13451776649747
G1 X-127.81725888324873 Y-117.26649746192894
G1 X-132.248730964467 Y-119.78934010152285
G1 X-133.7208121827411 Y-125.06598984771573
G1 X-139.94162436548223 Y-124.8756345177665
G1 X-145.64720812182742 Y-125.14720812182742
M5
M5
M30
